!!!!SEGMENT: pl-sa--25-a-i-25--003_luna-georgius--vesperae-beatus-vir.krn
!!!cenid: 17xx:485
!!!COM: Luna, Georgius
!!!COM-rismID: pe41010079
!!!CDT:
!!!CNT:
!!!OPR: Vesperae
!!!OTL: Beatus vir
!!!OMV: 003
!!!PDT:
!!!AGN: Sacred; Vespers
!!!SMS-siglum: PL-SA
!!!SMS-shelfmark: 25/A I 25
!!!SMS-shelfwork: 001-003 M
!!!SMS-variant:
!!!SMS-altvar:
!!!NIFC-rismSourceID: 1001068245
!!!NIFC-rismChildID: 1001068245
!!!NIFC-islandoraID: none
!!!URL-pdf-islandora:
!!!URL-scan: https://bc.bdsandomierz.pl/dlibra/publication/1258/edition/1226/content @EN{Scan in the Sandomierz Diocese Digital Library} @PL{Skany w portalu Cyfrowa Biblioteka Diecezjalna w Sandomierzu}
!!!IIIF:
!!!ONB-nifc: UWAGA: części Vesperae: Dixit Dominus, Confitebor, Beatus vir, Laudate pueri,
!!!AIN: 4 empty 1 tenor 2 violn 1 vox
!!!key:
**kern	**kern	**kern	**kern	**text	**kern	**text	**kern	**text	**kern	**kern
*part8	*part7	*part6	*part5	*part5	*part4	*part4	*part3	*part3	*part2	*part1
*staff8	*staff7	*staff6	*staff5	*staff5	*staff4	*staff4	*staff3	*staff3	*staff2	*staff1
*group4	*group3	*group3	*group2	*	*group2	*	*group2	*	*group1	*group1
*Iempty	*Ivioln	*Ivioln	*Iempty	*	*Itenor	*	*Ivox	*	*Iempty	*Iempty
*I"Fundamento	*I"Violino II	*I"Violino I	*I"Baſso	*	*I"Tenore	*	*I"Canto	*	*I"Clarino 2do ex D	*I"Clarino Imo ex D
*I'F	*I'Vn II	*I'Vn I	*I'B.	*	*I'T.	*	*I'C.	*	*I'Cl II	*I'Cl I
*clefF4	*clefG2	*clefG2	*clefF4	*	*clefC4	*	*clefC1	*	*clefG2	*clefG2
*	*	*	*	*	*	*	*	*	*ITrd-1c-2	*ITrd-1c-2
*k[f#c#]	*k[f#c#]	*k[f#c#]	*k[f#c#]	*	*k[f#c#]	*	*k[f#c#]	*	*k[f#c#]	*k[f#c#]
*D:	*D:	*D:	*D:	*	*D:	*	*D:	*	*D:	*D:
*M2/4	*M2/4	*M2/4	*M2/4	*	*M2/4	*	*M2/4	*	*M2/4	*M2/4
=1	=1	=1	=1	=1	=1	=1	=1	=1	=1	=1
*2\right	*	*2\right	*	*	*	*	*	*	*2\right	*
!LO:TX:a:t=P:global:problem=lewa krawędź kartki zamazana	!LO:TX:a:t=allo	!	!	!	!	!	!	!	!LO:TX:a:t=Allo	!LO:TX:a:t=Allo
!LO:TX:a:t=allo	!	!	!	!	!LO:TX:a:t=allo	!	!LO:TX:a:t=allo	!	!	!
8d\L	4ddd\	4ddd\	4d\	(B)e-	4d\	(B)e-	4ff#\	Be-	4dd\	4ff#\
8d\	.	.	.	.	.	.	.	.	.	.
8c#\	16ff#\LL	16aa\LL	8c#\	-a-	16f#\LL	-a-	16aa\LL	-a-	4dd\	4ff#\
.	16ee\	16gg\	.	.	16e\JJ	.	16gg\JJ	.	.	.
8c#\J	16a\	16ff#\	8c#\	-tis	16A/LL	-tus	16ff#\LL	-tus	.	.
.	16g\JJ	16ee\JJ	.	.	16G/JJ	.	16ee\JJ	.	.	.
=2	=2	=2	=2	=2	=2	=2	=2	=2	=2	=2
.	.	8qqee/	.	.	.	.	.	.	.	.
8B\L	16f#/LL	16dd\LL	4B\	vir	4F#/	vir	4dd\	vir	8dd\L	8ff#\L
.	16e/	16cc#\	.	.	.	.	.	.	.	.
8B\	16f#/	16dd\	.	.	.	.	.	.	16dd\L	16ff#\L
.	16f#/JJ	16dd\JJ	.	.	.	.	.	.	16dd\JJ	16ff#\JJ
8F#\	4f#/	4dd\	4F#\	qui	4F#/	qui	4dd\	qui	8dd\L	8ff#\L
8F#\J	.	.	.	.	.	.	.	.	8dd\J	8ff#\J
=3	=3	=3	=3	=3	=3	=3	=3	=3	=3	=3
8AA/L	16cc#\LL	16ee\LL	8.A\	ti-	16c#\LL	ti-	16ee\LL	ti-	8a\L	8ee\L
.	16ee\	16gg\	.	.	16e\JJ	.	16gg\JJ	.	.	.
8AA/	16dd\	16ff#\	.	.	16d\LL	-met	16ff#\LL	-met	8dd\	8ff#\
.	16ff#\JJ	16aa\JJ	16A\	-met	16f#\JJ	.	16aa\JJ	.	.	.
.	8qqff#/	8qqaa/	.	.	8qqf#/	.	.	.	.	.
8C#/	4ee\	4gg\	8.C#/	Do-	8.e\	Do-	8.gg\	Do-	8ee\	8gg\
8C#/J	.	.	.	.	.	.	.	.	8ee\J	8gg\J
.	.	.	16C#/	-mi-	16e\	-mi-	16gg\	-mi-	.	.
=4	=4	=4	=4	=4	=4	=4	=4	=4	=4	=4
*tremolo	*	*	*	*	*	*	*	*	*	*
8D\L	16ff#\LL	16ff#\LL	4D\	-nu(m)	4d\	-nu(m)	4ff#\	-nu(m)	8dd\L	8ff#\L
.	16dd\	16dd\	.	.	.	.	.	.	.	.
8D\	16ff#\	16ff#\	.	.	.	.	.	.	16dd\L	16ff#\L
.	16aa\JJ	16aa\JJ	.	.	.	.	.	.	16dd\JJ	16ff#\JJ
8D\	16ddd\LL	16ddd\LL	4D\	qui	4A\	qui	4dd\	qui	8dd\L	8ff#\L
.	16aa\	16aa\	.	.	.	.	.	.	.	.
8D\J	16ff#\	16ff#\	.	.	.	.	.	.	8dd\J	8ff#\J
.	16dd\JJ	16dd\JJ	.	.	.	.	.	.	.	.
*Xtremolo	*	*	*	*	*	*	*	*	*	*
=5	=5	=5	=5	=5	=5	=5	=5	=5	=5	=5
*	*	*Xtuplet	*	*	*	*	*	*	*	*
!	!LO:TX:a:t=P:global:problem=oznaczenie trioli z klamrą łukową	!LO:TX:a:t=P:global:problem=brak oznaczenia trioli	!	!	!	!	!	!	!	!
8AA/L	(24cc#\LL	24ee\LL	8A\	ti-	16c#\LL	ti-	16ee\LL	ti-	8a\L	8ee\L
.	24dd\	24ff#\	.	.	.	.	.	.	.	.
.	.	.	.	.	16e\JJ	.	16gg\JJ	.	.	.
.	24ee\JJ)	24gg\JJ	.	.	.	.	.	.	.	.
8AA/	(24dd\LL	24ff#\LL	8A\	-met	16d\LL	-met	16ff#\LL	-met	8dd\	8ff#\
.	24ee\	24gg\	.	.	.	.	.	.	.	.
.	.	.	.	.	16f#\JJ	.	16aa\JJ	.	.	.
.	24ff#\JJ)	24aa\JJ	.	.	.	.	.	.	.	.
.	8qqff#/	8qqaa/	.	.	8qqf#/	.	.	.	.	.
8C#/	4ee\	4gg\	8.c#\	Do-	8.e\	do-	8.gg\	Do-	8ee\	8gg\
8C#/J	.	.	.	.	.	.	.	.	8ee\J	8gg\J
.	.	.	16c#\	-mi-	16e\	-mi-	16gg\	-mi-	.	.
=6	=6	=6	=6	=6	=6	=6	=6	=6	=6	=6
.	.	.	.	.	.	.	8qqgg/	.	.	.
16D\LL	16ff#\LL	16ff#\LL	4d\	-num	4d\	-num	4ff#\	-num	8dd\L	8ff#\L
16d\	16dd\	16dd\	.	.	.	.	.	.	.	.
16c#\	16cc#\	16cc#\	.	.	.	.	.	.	16dd\L	16ff#\L
16B\JJ	16b\JJ	16b\JJ	.	.	.	.	.	.	16dd\JJ	16ff#\JJ
16A\LL	16a/LL	16a/LL	4r	.	4r	.	4r	.	8dd\L	8ff#\L
16G\	16g/	16g/	.	.	.	.	.	.	.	.
16F#\	16f#/	16f#/	.	.	.	.	.	.	8dd\J	8ff#\J
16E\JJ	16e/JJ	16e/JJ	.	.	.	.	.	.	.	.
=7	=7	=7	=7	=7	=7	=7	=7	=7	=7	=7
*tremolo	*	*	*	*	*	*	*	*	*	*
8D\L	8ff#\L	16d/LL	4d\	In	4d\	in	4ff#\	in	8dd\L	8ff#\L
.	.	16f#/	.	.	.	.	.	.	.	.
8D\	8ff#\	16a/	.	.	.	.	.	.	16dd\L	16ff#\L
.	.	16dd/JJ	.	.	.	.	.	.	16dd\JJ	16ff#\JJ
8D\	8ff#\	16ff#\LL	4d\	man-	4d\	man-	4ff#\	man-	8dd\L	8ff#\L
.	.	16aa\	.	.	.	.	.	.	.	.
8D\J	8ff#\J	16dd\	.	.	.	.	.	.	8dd\J	8ff#\J
.	.	16ff#\JJ	.	.	.	.	.	.	.	.
=8	=8	=8	=8	=8	=8	=8	=8	=8	=8	=8
*	*Xtuplet	*	*	*	*	*	*	*	*	*
!	!LO:TX:a:t=P:problem=brak oznaczenia trioli	!	!	!	!	!	!	!	!	!
8C#/L	24cc#/LL	24ee\LL	4c#\	-da-	4c#\	-da-	4ee\	-da-	8a/L	8ee\L
.	24a/	24cc#\	.	.	.	.	.	.	.	.
.	24f#/JJ	24a\JJ	.	.	.	.	.	.	.	.
8C#/	16a/LL	16cc#\LL	.	.	.	.	.	.	16a/L	16ee\L
.	16cc#/JJ	16ee\JJ	.	.	.	.	.	.	16a/JJ	16ee\JJ
8C#/	4aa\	4aa\	4c#\	-tis	4c#\	-tis	4ee\	-tis	8a/L	8ee\L
8C#/J	.	.	.	.	.	.	.	.	8a/J	8ee\J
!	!	!LO:LB:g=original	!	!	!	!	!	!	!	!
=9	=9	=9	=9	=9	=9	=9	=9	=9	=9	=9
8E\L	16e/LL	16e/LL	8E\	{in	8B\	{in	8dd\	in	8a/L	8ee\L
.	16g#X/	16g#X/	.	.	.	.	.	.	.	.
8E\	16b/	16b/	8E\	man-	8B\	man-	8dd\	man-	16a/L	16ee\L
.	16dd/JJ	16dd/JJ	.	.	.	.	.	.	16a/JJ	16ee\JJ
!	!LO:TX:a:t=P:problem=mixed beam	!LO:TX:a:t=P:problem=mixed beam	!	!	!	!	!	!	!	!
8E\	16gg#X\LL	16gg#X\LL	8E\	-da-	8B\	-da-	8dd\	-da-	8a/L	8ee\L
.	16bb\	16bb\	.	.	.	.	.	.	.	.
8E\J	16b/	16b/	8E\	-tis}	8B\	-tis}	8dd\	-tis	8a/J	8ee\J
.	16dd/JJ	16dd/JJ	.	.	.	.	.	.	.	.
*Xtremolo	*	*	*	*	*	*	*	*	*	*
=10	=10	=10	=10	=10	=10	=10	=10	=10	=10	=10
!	!LO:TX:a:t=P:problem=brak oznaczenia trioli	!	!	!	!	!	!	!	!	!
8AA/L	24cc#\LL	24ee\LL	4A\	e-	4A\	e-	4cc#\	e-	8ee\L	8ee\L
.	24b\	24cc#\	.	.	.	.	.	.	.	.
.	24a\JJ	24a\JJ	.	.	.	.	.	.	.	.
8AA/	16aa\LL	16aa\LL	.	.	.	.	.	.	16ee\L	16ee\L
.	16aa\JJ	16aa\JJ	.	.	.	.	.	.	16ee\JJ	16ee\JJ
8C#/	4aa\	4aa\	8c#\L	-ius	4c#\	-ius	4ee\	-ius	16ee\LL	16ee\LL
.	.	.	.	.	.	.	.	.	16ee\	16ee\
8AA/J	.	.	8A\J	.	.	.	.	.	16ee\	16ee\
.	.	.	.	.	.	.	.	.	16ee\JJ	16ee\JJ
!	!LO:LB:g=original	!	!	!	!LO:LB:g=original	!	!	!	!	!
=11	=11	=11	=11	=11	=11	=11	=11	=11	=11	=11
*tremolo	*	*	*	*	*	*	*	*	*	*
!	!	!	!	!	!LO:TX:a:t=P:problem= niepasujący tekst	!	!	!	!	!
8E\L	16e/LL	16e/LL	4E\	in	4B\	ro-	4dd\	{e-	4a/	4ee\
.	16g#X/	16g#X/	.	.	.	.	.	.	.	.
8E\	16b/	16b/	.	.	.	.	.	.	.	.
.	16dd/JJ	16dd/JJ	.	.	.	.	.	.	.	.
!	!LO:TX:a:t=P:problem=mixed beam	!LO:TX:a:t=P:problem=mixed beam	!	!	!	!	!	!	!	!
8E\	16gg#X\LL	16gg#X\LL	4E\	man-	4B\	-lent	4dd\	-ius}	4r	4r
.	16bb\	16bb\	.	.	.	.	.	.	.	.
8E\J	16b/	16b/	.	.	.	.	.	.	.	.
.	16dd/JJ	16dd/JJ	.	.	.	.	.	.	.	.
!	!	!	!LO:LB:g=original	!	!	!	!	!	!	!
*Xtremolo	*	*	*	*	*	*	*	*	*	*
=12	=12	=12	=12	=12	=12	=12	=12	=12	=12	=12
!	!LO:TX:a:t=P:problem=brak oznaczenia trioli	!LO:TX:a:t=P:problem=klamra łukowa	!	!	!LO:TX:a:t=P:problem= niepasujący tekst	!	!	!	!	!
8AA/L	24cc#\LL	(24cc#\LL	4A\	-da-	8A\	ro-	8cc#\L	{e-	8ee\L	8ee\L
.	24b\	24b\	.	.	.	.	.	.	.	.
.	24a\JJ	24a\JJ)	.	.	.	.	.	.	.	.
8AA/	16ff#\LL	16aa\LL	.	.	16f#\LL	.	16aa\L	.	16ee\L	16ee\L
.	16ee\JJ	16gg#X\JJ	.	.	16e\JJ	.	16gg#X\JJ	.	16ee\JJ	16ee\JJ
!	!	!	!	!	!	!	!LO:LB:g=original	!	!LO:LB:g=original	!LO:LB:g=original
8D#X/	16ee\LL	16ff#\LL	8D\L	-tis	16d\LL	.	16aa\LL	.	16ee\LL	16ee\LL
.	16cc#\	16ee\	.	.	16c#\JJ	.	16gg#\JJ	.	16ee\	16ee\
8D#/J	16b\	16dd\	8D#X\J	.	16B\LL	-let	16ff#\LL	-ius}	16ee\	16ee\
.	16a\JJ	16cc#\JJ	.	.	16A\JJ	.	16ee\JJ	.	16ee\JJ	16ee\JJ
=13	=13	=13	=13	=13	=13	=13	=13	=13	=13	=13
8E\L	8a/	8cc#\	8E\	e-	8A/	e-	8dd\	e-	4a/	4ee\
8E\	4g#X/	4b\	8E\L	-ius	4G#X/	-ius	4b\	-ius	.	.
8G#X\	.	.	8G#X\J	.	.	.	.	.	8r	8r
!	!LO:TX:a:t=P:problem=brak oznaczenia trioli	!	!	!	!	!	!	!	!	!
8E\J	24g#/LL	24b\LL	8E\	vo-	8G#/	ro-	8b\	ro-	8dd\	8ff#\
.	(24a/	24cc#\	.	.	.	.	.	.	.	.
.	24cc#/JJ)	24dd\JJ	.	.	.	.	.	.	.	.
=14	=14	=14	=14	=14	=14	=14	=14	=14	=14	=14
8AA/L	16cc#\LL	16cc#\LL	4A\	-lont	8A/	.	8cc#\	.	8ee\L	8ee\L
.	16a\	16a\	.	.	.	.	.	.	.	.
8AA/	16ff#\	16aa\	.	.	16f#\LL	.	16aa\LL	.	16ee\L	16ee\L
.	16ee\JJ	16gg#X\JJ	.	.	16e\JJ	.	16gg\JJ	.	16ee\JJ	16ee\JJ
8D/	16dd\LL	16ff#\LL	8D\	ni-	16d\LL	.	16ff#\LL	.	8ee\L	8ee\L
.	16cc#\	16ee\	.	.	16c#\JJ	.	16ee\	.	.	.
8D#X/J	16b\	16dd\	8D#X\	.	16B\LL	-let	16dd\	-let	8ee\J	8ee\J
.	16a\JJ	16cc#\JJ	.	.	16A\JJ	.	16cc#\JJ	.	.	.
=15	=15	=15	=15	=15	=15	=15	=15	=15	=15	=15
.	.	8qqdd/	.	.	.	.	.	.	.	.
8E\L	8a/L	8cc#\L	8E\	.	8A/	ni-	8dd\	ni-	4a/	4ee\
8E\	8g#X/J	8b\J	8E\	-mis	8G#X/	-mis	8cc#\	-mis	.	.
8G#X\	16r	16r	8r	.	8r	.	8r	.	8r	8r
.	16f#/LL	16b\LL	.	.	.	.	.	.	.	.
8B\J	16b/	16dd#X\	8B\	Po-	8d#X\	Po-	8ff#\	Po-	8dd\	8ff#\
.	16dd/JJ	16ff#\JJ	.	.	.	.	.	.	.	.
=16	=16	=16	=16	=16	=16	=16	=16	=16	=16	=16
*tremolo	*	*	*	*	*	*	*	*	*	*
!	!LO:TX:a:t=P:problem=brak oznaczenia trioli	!LO:TX:a:t=P:problem=klamra łukowa	!	!	!	!	!	!	!	!
8BB/L	24ff#\LL	(24dd#X\LL	4B\	-tens	4f#\	-tens	4aa\	-tens	8ee\L	8ee\L
.	24ee\	24cc#\	.	.	.	.	.	.	.	.
.	24dd#X\JJ	24b\JJ)	.	.	.	.	.	.	.	.
8BB/	8ff#\L	8aa'\L	.	.	.	.	.	.	8ee\J	8ee\J
8BB/	8ee\	8gg#X'\	4B\	in	8e\L	.	8gg#X\L	in	4r	4r
8BB/J	8dd#\J	8ff#'\J	.	.	8d#X\J	in	8ff#\J	.	.	.
!LO:LB:g=original	!	!	!	!	!	!	!	!	!	!
=17	=17	=17	=17	=17	=17	=17	=17	=17	=17	=17
!	!	!	!	!	!	!	!	!	!	!LO:TX:a:t=4
!	!	!	!	!	!	!	!	!	!LO:N:vis=00	!LO:N:vis=00
8E\L	16gg#X\LL	16gg#X\LL	8E\	ter-	8e\	ter-	8gg\	ter-	0r	0r
.	16ee\	16ee\	.	.	.	.	.	.	.	.
8E\	16bb\	16bb\	8E\	-ra	8A/	-ra	8ee\	-ra	.	.
.	16gg#\JJ	16gg#\JJ	.	.	.	.	.	.	.	.
!	!	!LO:LB:g=original	!	!	!	!	!	!	!	!
8E\	16ee\LL	16ee/LL	4r	.	4r	.	4r	.	.	.
.	16b\JJ	16b/	.	.	.	.	.	.	.	.
8E\J	16g#X/LL	16g#X/	.	.	.	.	.	.	.	.
.	16e/JJ	16e/JJ	.	.	.	.	.	.	.	.
=18	=18	=18	=18	=18	=18	=18	=18	=18	=18	=18
8BB/L	16ff#\LL	16dd#X\LL	8B\	e-	8f#\	e-	8aa\	e-	.	.
.	16dd#X\JJ	16b\JJ	.	.	.	.	.	.	.	.
8BB/	(8ff#\L	8aa\L	8B\	-rit	8f#\	-rit	8aa\	-rit	.	.
8BB/	8ee\	8gg#X\	8B\	Se-	8e\	se-	8gg#X\	se-	.	.
8BB/J	8dd#\J)	8ff#\J	8B\	-men	8d#X\	-men	8ff#\	-men	.	.
*Xtremolo	*	*	*	*	*	*	*	*	*	*
=19	=19	=19	=19	=19	=19	=19	=19	=19	=19	=19
!LO:TX:a:t=P:problem=mixed beam	!	!	!LO:TX:a:t=P:problem=mixed beam	!	!	!	!	!	!	!
8E\L	8ee\L	24gg\LL	8E\L	e-	8B\L	e-	16gg\LL	e-	.	.
.	.	24ff#\	.	.	.	.	.	.	.	.
.	.	.	.	.	.	.	16aa\	.	.	.
.	.	24ee\JJ	.	.	.	.	.	.	.	.
!	!	!	!	!	!LO:TX:a:t=P:problem=brak oznaczenia trioli	!	!	!	!	!
*	*	*	*Xtuplet	*	*Xtuplet	*	*	*	*	*
8AA/	8ff#\	24ccc#\LL	8A\	-ius	24c#\L	.	16gg\	.	.	.
.	.	24bb\	.	.	24B\	.	.	.	.	.
.	.	.	.	.	.	.	16ff#\JJ	.	.	.
.	.	24aa\JJ	.	.	24A\JJ	.	.	.	.	.
8BB/	8ee\	8gg#X\L	8B\	.	8G#X/L	.	8ee\L	.	.	.
8BB/J	8dd#X\J	8ff#\J	8BB/J	.	8F#/J	.	8dd#X\J	.	.	.
!	!	!	!	!	!LO:LB:g=original	!	!	!	!	!
=20	=20	=20	=20	=20	=20	=20	=20	=20	=20	=20
8E\L	4ee\	4ee\	4E\	.	4G/	-ius	4ee\	-ius	.	.
16E\L	.	.	.	.	.	.	.	.	.	.
16F#\JJ	.	.	.	.	.	.	.	.	.	.
16E/LL	16r	16r	4r	.	4r	.	4r	.	.	.
16D/	16dd\	16dd\	.	.	.	.	.	.	.	.
!	!LO:N:vis=4.	!	!	!	!	!	!	!	!	!
16C#/	16dd\LL	24dd\LL	.	.	.	.	.	.	.	.
.	.	24cc#\	.	.	.	.	.	.	.	.
16BB/JJ	32cc#\L	.	.	.	.	.	.	.	.	.
.	.	24dd\JJ	.	.	.	.	.	.	.	.
.	32dd\JJJ	.	.	.	.	.	.	.	.	.
!	!LO:LB:g=original	!	!	!	!	!	!	!	!	!
=21	=21	=21	=21	=21	=21	=21	=21	=21	=21	=21
8AA/L	8cc#\L	16ee\LL	2r	.	8e\	ge-	8ggn\	ge-	4a/	4ee\
.	.	16cc#\	.	.	.	.	.	.	.	.
8AA/	8cc#\	16b\	.	.	16e\LL	-ne-	8gg\	-ne-	.	.
.	.	16a\JJ	.	.	16A\JJ	.	.	.	.	.
8C#/	8ee\	4gg\	.	.	8e\	-ra-	8gg\	-ra-	4ee\	4gg\
8C#/J	8ee\J	.	.	.	8e\	-ti-	8gg\	-ti-	.	.
=22	=22	=22	=22	=22	=22	=22	=22	=22	=22	=22
!LO:TX:a:t=P:problem=mixed beam	!	!	!LO:TX:a:t=P:problem=brak t. 22	!	!	!	!	!	!	!
16D/LL	16dd\LL	16ff#\LL	2ryy	.	4d\	-o	4ff#\	-o	8dd\L	8ff#\L
16d\	16dd\	16dd\	.	.	.	.	.	.	.	.
16c#\	16cc#\	16cc#\	.	.	.	.	.	.	16dd\L	16ff#\L
16d\JJ	16dd\JJ	16dd\JJ	.	.	.	.	.	.	16dd\JJ	16ff#\JJ
16A\LL	16a/LL	16a/LL	.	.	4r	.	4r	.	8dd\L	8ff#\L
16F#\J	16f#/J	16f#/J	.	.	.	.	.	.	.	.
8D\J	8d/J	8d/J	.	.	.	.	.	.	8dd\J	8ff#\J
!	!	!	!	!	!	!	!LO:LB:g=original	!	!	!
=23	=23	=23	=23	=23	=23	=23	=23	=23	=23	=23
!	!	!	!	!	!	!	!	!	!	!LO:TX:a:t=2
!	!	!	!	!	!	!	!	!	!LO:N:vis=0	!LO:N:vis=0
8BB/L	8dd#X\L	16ff#\LL	4B\	Rec-	4f#\	Rec-	4aa\	Rec-	1r	1r
.	.	16dd#X\	.	.	.	.	.	.	.	.
8BB/	8dd#\	16cc#\	.	.	.	.	.	.	.	.
.	.	16b\JJ	.	.	.	.	.	.	.	.
8D/	8ff#\	4aa\	4D#X/	-to-	4f#\	-to-	4aa\	-to-	.	.
8D#X/J	8ff#\J	.	.	.	.	.	.	.	.	.
=24	=24	=24	=24	=24	=24	=24	=24	=24	=24	=24
16E\LL	16ee\LL	16gg#X\LL	4E\	-rum	4e\	-rum	4gg#X\	-rum	.	.
16e\	16ee\	16ee\	.	.	.	.	.	.	.	.
16d#X\	16dd#X\	16dd#X\	.	.	.	.	.	.	.	.
16e\JJ	16ee\JJ	16ee\JJ	.	.	.	.	.	.	.	.
16B\LL	16b/LL	16b/LL	4r	.	4r	.	4r	.	.	.
!	!LO:TX:a:t=SIC:s=g#	!	!	!	!	!	!	!	!	!
16G#X\J	16g/J	16g#X/J	.	.	.	.	.	.	.	.
8E\J	8e/J	8e/J	.	.	.	.	.	.	.	.
=25	=25	=25	=25	=25	=25	=25	=25	=25	=25	=25
*tremolo	*	*	*	*	*	*	*	*	*	*
8A\L	8cc#\L	24cc#\LL	8A\	ge-	8A\	ge-	8cc#\	ge-	4aa\	4aa\
.	.	24b\	.	.	.	.	.	.	.	.
.	.	24a\JJ	.	.	.	.	.	.	.	.
8A\	8cc#\	8ff#\L	8A\	-ne-	8c#\	-ne-	8ff#\	-ne-	.	.
8A\	8b\	8ee\	8A\	-ra-	8B\	-ra-	8ee\	-ra-	4r	4r
8A\J	8a\J	8dd#X\J	8A\	-ti-	8A\	-ti-	8dd#X\	-ti-	.	.
*Xtremolo	*	*	*	*	*	*	*	*	*	*
=26	=26	=26	=26	=26	=26	=26	=26	=26	=26	=26
*	*tuplet	*	*	*	*	*	*	*	*	*
8G#X\L	8b/L	8ee\L	8G#X\	-o	8B\	-o	8ee\	-o	4ee\	4ee\
!	!LO:TUP:b	!	!	!	!	!	!	!	!	!
8G#\	(24g/L	24b\L	8G#\	rec-	8B\	rec-	8ddn\	rec-	.	.
.	24a/	24cc#\	.	.	.	.	.	.	.	.
.	24b/JJ)	24ddn\JJ	.	.	.	.	.	.	.	.
8E\	8a/L	8cc#\L	8E\	-to-	8A\	-to-	8cc#\	-to-	8r	8r
8E\J	8g/J	8b\J	8E\	-rum	8G#X\	-rum	8b\	-rum	8ee\	8ee\
!	!	!LO:LB:g=original	!	!	!	!	!	!	!	!
=27	=27	=27	=27	=27	=27	=27	=27	=27	=27	=27
!	!	!LO:TX:a:t=P:problem=klamra łukowa	!	!	!	!	!	!	!	!
8A\L	8a\L	(24cc#\LL	8A\	Be-	8A\	Be-	8cc#\	Be-	8dd\L	8ee\L
.	.	24b\	.	.	.	.	.	.	.	.
.	.	24a\JJ)	.	.	.	.	.	.	.	.
!	!	!LO:TX:a:t=P:problem=klamra łukowa	!	!	!LO:TX:a:t=P:problem= brak oznaczenia trioli	!	!LO:TX:a:t=P:problem= brak oznaczenia trioli	!	!	!
*	*	*	*	*	*	*	*Xtuplet	*	*	*
8D\	(24dd\L	(24ff#\LL	16D/	-ne-	24d\LL	-ne-	24ee\LL	-ne-	8ee\	8ff#\
.	24cc#\	24ee\	.	.	24c#\	.	24dd\	.	.	.
.	.	.	16D/	-di-	.	.	.	.	.	.
.	24b\JJ)	24dd\JJ)	.	.	24B\JJ	.	24cc#\JJ	.	.	.
8E\	8a/L	8cc#\L	8E\	-ce-	8A/	-di-	8b\	-di-	8dd\	8ee\
8E\J	8g#X/J	8b\J	8E\	-tur	16G/	-ce-	8a\	-ce-	8ee\J	8ee\J
.	.	.	.	.	16G/	-tur	.	.	.	.
*	*	*	*	*	*	*	*tuplet	*	*	*
=28	=28	=28	=28	=28	=28	=28	=28	=28	=28	=28
*tremolo	*	*	*	*	*	*	*	*	*	*
!	!	!LO:TX:a:t=P:problem=klamra łukowa	!	!	!	!	!	!	!	!LO:TX:a:t=P:problem=brak t. 28
8A\L	8a\L	(24cc#\LL	8A\	ge-	8A\	ge-	8b\	-tur	4a/	2ryy
.	.	24b\	.	.	.	.	.	.	.	.
.	.	24a\JJ)	.	.	.	.	.	.	.	.
8A\	8dd\	8ff#\L	8A\	-ne-	8c#\	-ne-	8ff#\	ge-	.	.
8A\	8cc#\	8ee\	8A\	-ra-	8B\	-ra-	8ee\	-ne-	4r	.
8A\J	8b\J	8dd#X\J	8A\	-ti-	8A\	-ti-	8dd#X\	-ra-	.	.
*Xtremolo	*	*	*	*	*	*	*	*	*	*
=29	=29	=29	=29	=29	=29	=29	=29	=29	=29	=29
8G#X\L	8b/L	8ee\	8G#X\	-o	8B\	-o	8ee\	-tio	4ee\	4ee\
!	!LO:TUP:b	!	!	!	!	!	!	!	!	!
8G#\	(24g#X/L	24b\LL	8G#\	rec-	8B\	rec-	8ddn\	Rec-	.	.
.	24a/	24cc#\	.	.	.	.	.	.	.	.
.	24b/JJ)	24ddn\JJ	.	.	.	.	.	.	.	.
!	!	!	!	!	!LO:LB:g=original	!	!	!	!	!
8E\	8a/L	8cc#X\L	8E\	-to-	8A/	-to-	8cc#\	-to-	8r	8r
8E\J	8g#/J	8b\J	8E\	-rum	8G#X/	-rum	8b\	-rum	8ee\	8ee\
=30	=30	=30	=30	=30	=30	=30	=30	=30	=30	=30
8A\L	8a\L	24cc#\LL	8A\	be-	8A\	Be-	8cc#\	Be-	8a\L	8ee\L
.	.	24b\	.	.	.	.	.	.	.	.
.	.	24a\JJ	.	.	.	.	.	.	.	.
!	!	!	!	!	!	!	!LO:TX:a:t=P:problem= klamra łukowa	!	!	!
8D\	(24dd\L	24ff#\LL	16D\	-ne-	16d\LL	-ne-	(24ff#\LL	-ne-	8dd\	8ff#\
.	24cc#\	24ee\	.	.	.	.	24ee\	.	.	.
.	.	.	16D\	-di-	16c#\JJ	.	.	.	.	.
.	24b\JJ)	24dd\JJ	.	.	.	.	24dd\JJ)	.	.	.
8E\	8a/L	8cc#\L	4E\	-ce-	8B\	-di-	8cc#\	-di-	8ee\	8ee\
8E\J	8g#X/J	8b\J	.	.	16A/LL	-ce-	8b\	-ce-	8ee\J	8ee\J
.	.	.	.	.	16G#X/JJ	.	.	.	.	.
=31	=31	=31	=31	=31	=31	=31	=31	=31	=31	=31
8A\L	8cc#\L	8a\L	4AA/	-tur	16A/	-tur	4a\	-tur	4a/	4ee\
.	.	.	.	.	16A/	glo-	.	.	.	.
8A\	8cc#\	16cc#\L	.	.	16c#\	-ri-	.	.	.	.
.	.	16ee\JJ	.	.	16e\	-a	.	.	.	.
.	.	8qqee/	.	.	8qe/	.	.	.	.	.
8G#X\	8b\	8dd\L	4r	.	8d\	et	4r	.	4r	4r
8G#\J	8a\J	16cc#\L	.	.	16c#\LL	di-	.	.	.	.
.	.	16b\JJ	.	.	16B\JJ	.	.	.	.	.
!LO:LB:g=original	!	!	!	!	!	!	!	!	!LO:LB:g=original	!
=32	=32	=32	=32	=32	=32	=32	=32	=32	=32	=32
!	!	!	!	!	!	!	!	!	!	!LO:TX:a:t=32
.	.	8qqb/	.	.	8qB/	.	.	.	.	.
!	!	!	!LO:N:vis=00	!	!	!	!LO:N:vis=00	!	!LO:N:vis=00	!LO:N:vis=00
8F#\L	8c#/L	8.a/L	0r	.	8.A/	-vi-	0r	.	0r	0r
8F#\	8B/J	.	.	.	.	.	.	.	.	.
.	.	16g#X/Jk	.	.	16G#X/	-ti-	.	.	.	.
.	8qqB/	8qqg#/	.	.	8qG#/	.	.	.	.	.
8C#\	4c#/	4a/	.	.	4A/	-ae	.	.	.	.
8C#\J	.	.	.	.	.	.	.	.	.	.
!	!LO:LB:g=original	!	!	!	!	!	!	!	!	!
=33	=33	=33	=33	=33	=33	=33	=33	=33	=33	=33
*tremolo	*	*	*	*	*	*	*	*	*	*
8D\L	8a\L	16ff#\LL	.	.	16f#\LL	in	.	.	.	.
.	.	16ee\	.	.	16e\	.	.	.	.	.
8D\	16dd\L	16ff#\	.	.	16f#\	.	.	.	.	.
.	16ee\JJ	16gg#X\JJ	.	.	16g\JJ	.	.	.	.	.
.	8qqgg/	.	.	.	8qqg/	.	.	.	.	.
8D\	8ff#\L	8aa\L	.	.	8a\	do-	.	.	.	.
8D\J	16ee\L	16gg#\L	.	.	16g\LL	-mo	.	.	.	.
.	16dd\JJ	16ff#\JJ	.	.	16f#\JJ	.	.	.	.	.
*Xtremolo	*	*	*	*	*	*	*	*	*	*
=34	=34	=34	=34	=34	=34	=34	=34	=34	=34	=34
!LO:TX:a:t=P:problem=mixed beam	!	!	!	!	!	!	!	!	!	!
.	8qqcc#/	8qqee/	.	.	8qqe/	.	.	.	.	.
8E\L	8b/L	8dd\L	.	.	4d\	E-	.	.	.	.
8G#X\	8b/	8dd\	.	.	.	.	.	.	.	.
8A\	8a/	8cc#\	.	.	4c#\	-ius	.	.	.	.
8AA/J	8a/J	8cc#\J	.	.	.	.	.	.	.	.
=35	=35	=35	=35	=35	=35	=35	=35	=35	=35	=35
!LO:TX:a:t=P:problem=mixed beam	!	!	!	!	!	!	!	!	!	!
8AA/L	8a\L	8cc#\L	.	.	8c#\	et	.	.	.	.
8A\	8cc#\	8ee\	.	.	16c#\LL	Jus-	.	.	.	.
.	.	.	.	.	16e\JJ	.	.	.	.	.
8E\	8b\	8dd\	.	.	8d\	-ti-	.	.	.	.
8EE/J	8b\J	8dd\J	.	.	16B\LL	-ti-	.	.	.	.
.	.	.	.	.	16d\JJ	-a	.	.	.	.
=36	=36	=36	=36	=36	=36	=36	=36	=36	=36	=36
!LO:TX:a:t=P:problem=mixed beam	!	!	!LO:N:vis=0	!	!	!	!LO:N:vis=0	!	!LO:N:vis=00	!LO:N:vis=00
8AA\L	8a\L	8cc#\L	1r	.	8c#\	e-	1r	.	0r	0r
8A/	8cc#\	8ee\	.	.	16c#\LL	-ius	.	.	.	.
.	.	.	.	.	16e\JJ	.	.	.	.	.
!	!	!	!	!	!LO:LB:g=original	!	!	!	!	!
8E/	8b\	8dd\	.	.	8d\	ma-	.	.	.	.
8EE\J	8b\J	8dd\J	.	.	16B\	-net	.	.	.	.
.	.	.	.	.	16d\	in	.	.	.	.
!	!	!LO:LB:g=original	!	!	!	!	!	!	!	!
=37	=37	=37	=37	=37	=37	=37	=37	=37	=37	=37
8AA/L	8a\L	8cc#\L	.	.	16c#\LL	Sae-	.	.	.	.
.	.	.	.	.	16b\	.	.	.	.	.
8AA/	8dd\	8ff#\	.	.	16f#\	.	.	.	.	.
.	.	.	.	.	16d#X\JJ	.	.	.	.	.
8D/	8cc#\	8ee\	.	.	16e\LL	.	.	.	.	.
.	.	.	.	.	16f#\JJ	.	.	.	.	.
8D/J	8b\J	8dd\J	.	.	16dn\	-cu-	.	.	.	.
.	.	.	.	.	16B\	-lum	.	.	.	.
=38	=38	=38	=38	=38	=38	=38	=38	=38	=38	=38
*tremolo	*	*	*	*	*	*	*	*	*	*
8E\L	8a/L	8cc#\L	2r	.	4A\	Sae-	2r	.	.	.
8E\	8a/	8cc#\	.	.	.	.	.	.	.	.
8E\	8g#X/	8b\	.	.	8.B\	.	.	.	.	.
8E\J	8g#/J	8b\J	.	.	.	.	.	.	.	.
.	.	.	.	.	16B\	-cu-	.	.	.	.
=39	=39	=39	=39	=39	=39	=39	=39	=39	=39	=39
8A\L	16.a\LL	16.a\LL	8r	.	8A\	-li	8r	.	.	.
.	32cc#\K	32ee\K	.	.	.	.	.	.	.	.
8A\	16.cc#\	16.ee\	8A\	Ex-	8c#\	Ex-	8ee\	Ex-	.	.
.	32cc#\JJk	32ee\JJk	.	.	.	.	.	.	.	.
8A\	16.cc#\LL	16.ee\LL	8A\	-or-	8c#\	-or-	8ee\	-or-	.	.
.	32cc#\K	32ee\K	.	.	.	.	.	.	.	.
8A\J	16.cc#\	16.ee\	8A\	-tum	8c#\	-tum	8ee\	-tum	.	.
.	32cc#\JJk	32ee\JJk	.	.	.	.	.	.	.	.
!	!	!	!	!	!	!	!LO:LB:g=original	!	!	!
=40	=40	=40	=40	=40	=40	=40	=40	=40	=40	=40
*	*	*tremolo	*	*	*	*	*	*	*	*
*	*	*tremolo	*	*	*	*	*	*	*	*
!	!	!	!	!	!	!	!	!	!LO:N:vis=00	!LO:N:vis=00
8Gn\L	16.cc#\LL	16ee\LL	8G\	et	8c#\	et	8ee\	est	0r	0r
.	.	16ee\	.	.	.	.	.	.	.	.
.	32cc#\K	.	.	.	.	.	.	.	.	.
8Gn\	16.cc#\	16ee\	8G\	in	8c#\	in	8ee\	in	.	.
.	.	16ee\JJ	.	.	.	.	.	.	.	.
.	32cc#\JJk	.	.	.	.	.	.	.	.	.
8Gn\	16.cc#\LL	16ee\LL	8G\	te-	8c#\	te-	8ee\	te-	.	.
.	.	16ee\	.	.	.	.	.	.	.	.
.	32cc#\K	.	.	.	.	.	.	.	.	.
!	!	!	!LO:LB:g=original	!	!	!	!	!	!	!
8Gn\J	16.cc#\	16ee\	16G\	-ne-	16c#\	-ne-	16ee\	-ne-	.	.
.	.	16ee\JJ	16G\	-bris	16c#\	-bris	16ee\	-bris	.	.
.	32cc#\JJk	.	.	.	.	.	.	.	.	.
*Xtremolo	*	*	*	*	*	*	*	*	*	*
=41	=41	=41	=41	=41	=41	=41	=41	=41	=41	=41
8F#\L	16.cc#\LL	16ee\LL	8F#\L	Lu-	8c#\	lu-	8ee\	lu-	.	.
.	.	16ee\	.	.	.	.	.	.	.	.
.	32cc#\K	.	.	.	.	.	.	.	.	.
8F#\	16.cc#\	16ee\	8F#\J	-men	8c#\	-men	8ee\	-men	.	.
.	.	16ee\JJ	.	.	.	.	.	.	.	.
.	32cc#\JJk	.	.	.	.	.	.	.	.	.
*	*	*Xtremolo	*	*	*	*	*	*	*	*
8A#X\	16.cc#\LL	16.ee\LL	4A#X\	rec-	8B\L	Rec-	8dd\L	rec-	.	.
.	32cc#\K	32ee\K	.	.	.	.	.	.	.	.
8F#\J	16.b\	16.dd\	.	.	8A#X\J	.	8cc#\J	.	.	.
.	32a#X\JJk	32cc#\JJk	.	.	.	.	.	.	.	.
=42	=42	=42	=42	=42	=42	=42	=42	=42	=42	=42
!LO:TX:a:t=P:problem=mixed beam	!	!	!	!	!	!	!	!	!	!
8B\L	8b/L	8b\L	8B\	-tis	8B\	-tis	8b\	-tis	.	.
8BB/J	(24d/L	24b\L	8BB/	.	8F#/	mi-	8dd\	mi-	.	.
.	24e/	24cc#\	.	.	.	.	.	.	.	.
.	24f#/JJ)	24dd\JJ	.	.	.	.	.	.	.	.
8E\L	8e/L	8cc#\L	8E\	mi-	8E/	-se-	8cc#\	-se-	.	.
8F#\J	8c#/J	8a#X\J	8F#\	-se-	8D/	-ri-	8a#X\	-ri-	.	.
=43	=43	=43	=43	=43	=43	=43	=43	=43	=43	=43
!	!LO:TX:a:t=P:problem=mixed beam	!	!	!	!	!	!	!	!	!
8G\L	8d/L	8b\L	8G\	-ri-	8D/	-cors	8b\	-cors	.	.
.	.	.	.	.	8qd\	.	.	.	.	.
8G\	(24cc#\L	(24ee\L	8G\	.	8e\	.	8gg\	et	.	.
.	24dd\	24ff#\)	.	.	.	.	.	.	.	.
.	24ee\JJ)	24gg\JJ	.	.	.	.	.	.	.	.
8A#X\	8dd\L	8ff#\L	8A#X\	-cors	8d\	.	8ff#\	mi-	.	.
8A#\J	8cc#\J	8ee\J	8A#\	.	8d\	.	8ee\	-se-	.	.
!	!	!	!	!	!LO:LB:g=original	!	!	!	!	!
=44	=44	=44	=44	=44	=44	=44	=44	=44	=44	=44
!LO:TX:a:t=P:problem=mixed beam	!	!	!LO:N:vis=00	!	!LO:N:vis=00	!	!	!	!LO:N:vis=00	!LO:N:vis=00
8B\L	8g/L	8dd\L	0r	.	0r	.	8dd\	-ra-	0r	0r
8E\	16f#/L	16cc#\L	.	.	.	.	16cc#\	-tor	.	.
.	16e/JJ	16b\JJ	.	.	.	.	16b\	et	.	.
.	8qqf#/	.	.	.	.	.	8qqdd/	.	.	.
8F#\	8e/L	8cc#\L	.	.	.	.	8cc#\L	jus-	.	.
8FF#/J	16d/L	16b\L	.	.	.	.	16b\L	.	.	.
.	16c#/JJ	16a#X\JJ	.	.	.	.	16a#X\JJ	.	.	.
!	!LO:LB:g=original	!	!	!	!	!	!	!	!	!
=45	=45	=45	=45	=45	=45	=45	=45	=45	=45	=45
!LO:TX:a:t=P:problem=mixed beam	!	!	!	!	!	!	!	!	!	!
8BB/L	8d/L	8b\L	.	.	.	.	4b\	-tus	.	.
8B\	(24d/L	24b\L	.	.	.	.	.	.	.	.
.	24e/	24cc#\	.	.	.	.	.	.	.	.
.	24f#/JJ)	24dd\JJ	.	.	.	.	.	.	.	.
8E\	8e/L	16cc#\LL	.	.	.	.	4r	.	.	.
.	.	16cc#\	.	.	.	.	.	.	.	.
8F#\J	(24e/L	16b\	.	.	.	.	.	.	.	.
.	24d/	.	.	.	.	.	.	.	.	.
.	.	16a#X\JJ	.	.	.	.	.	.	.	.
.	24c#/JJ)	.	.	.	.	.	.	.	.	.
=46	=46	=46	=46	=46	=46	=46	=46	=46	=46	=46
!	!LO:TX:a:t=P:problem=mixed beam	!	!	!	!	!	!LO:N:vis=00	!	!	!
8G\L	8d/L	8b\L	.	.	.	.	0r	.	.	.
8G\	(24cc#\L	(24ee'\L	.	.	.	.	.	.	.	.
.	24dd\	24ff#\	.	.	.	.	.	.	.	.
.	24ee\JJ)	24gg\JJ)	.	.	.	.	.	.	.	.
8A#X\	16ee'\LL	16gg'\LL	.	.	.	.	.	.	.	.
.	16ee'\	16gg'\	.	.	.	.	.	.	.	.
8A#\J	(16dd\	(16ff#\	.	.	.	.	.	.	.	.
.	16cc#\JJ)	16ee\JJ)	.	.	.	.	.	.	.	.
!	!	!LO:LB:g=original	!	!	!	!	!	!	!	!
=47	=47	=47	=47	=47	=47	=47	=47	=47	=47	=47
!LO:TX:a:t=P:problem=mixed beam	!	!	!	!	!	!	!	!	!	!
8B\L	8dd\L	24dd\LL	.	.	.	.	.	.	.	.
.	.	24ff#\	.	.	.	.	.	.	.	.
.	.	24bb\JJ	.	.	.	.	.	.	.	.
8E\	8ee\	16gg\LL	.	.	.	.	.	.	.	.
.	.	16ee\JJ	.	.	.	.	.	.	.	.
8F#\	8dd\	8dd\L	.	.	.	.	.	.	.	.
8FF#/J	8cc#\J	8cc#\J	.	.	.	.	.	.	.	.
=48	=48	=48	=48	=48	=48	=48	=48	=48	=48	=48
*tremolo	*	*	*	*	*	*	*	*	*	*
!	!	!	!LO:TX:a:t=Solo	!	!LO:N:vis=00	!	!	!	!LO:N:vis=00	!LO:N:vis=00
8BB/L	8b/L	8b/L	8r	.	0r	.	.	.	0r	0r
8BB/	8f#/J	8f#/J	8F#\	Ju-	.	.	.	.	.	.
8BB/	16e/LL	16e/LL	16E\LL	-cun-	.	.	.	.	.	.
.	16d/	16d/	16D\JJ	.	.	.	.	.	.	.
8BB/J	16c#/	16c#/	16C#/LL	-dus	.	.	.	.	.	.
.	16B/JJ	16B/JJ	16BB/JJ	.	.	.	.	.	.	.
*Xtremolo	*	*	*	*	*	*	*	*	*	*
=49	=49	=49	=49	=49	=49	=49	=49	=49	=49	=49
8BB/L	4e/	4g/	4G\	ho-	.	.	.	.	.	.
8BB/	.	.	.	.	.	.	.	.	.	.
8BB/	8d/L	8f#/L	8F#\	-mo	.	.	.	.	.	.
8D/J	8f#/J	8b/J	8B\	qui	.	.	.	.	.	.
=50	=50	=50	=50	=50	=50	=50	=50	=50	=50	=50
!	!	!	!	!	!	!	!LO:N:vis=00	!	!	!
8C#/L	8e/L	8a#X\L	8A\	mi-	.	.	0r	.	.	.
8BB/	16d/L	16b\L	16B\LL	-se-	.	.	.	.	.	.
.	16dd/JJ	16gg\JJ	16F#\JJ	.	.	.	.	.	.	.
.	.	8qqff#/	8qqF#/	.	.	.	.	.	.	.
8F#/	4cc#\	4ee\	4E\	-re-	.	.	.	.	.	.
8F#/J	.	.	.	.	.	.	.	.	.	.
!LO:LB:g=original	!	!	!	!	!	!	!	!	!	!
=51	=51	=51	=51	=51	=51	=51	=51	=51	=51	=51
8BB/L	4b\	4dd\	4D\	-tur	.	.	.	.	.	.
8BB/	.	.	.	.	.	.	.	.	.	.
8D/	8f#/L	8b\L	8B\	mi-	.	.	.	.	.	.
8D/J	8f#/J	8b\J	8B\	-se-	.	.	.	.	.	.
=52	=52	=52	=52	=52	=52	=52	=52	=52	=52	=52
!	!	!	!	!	!LO:N:vis=00	!	!	!	!LO:N:vis=00	!LO:N:vis=00
8C#/L	8e/L	8a#X\L	8A#X\	-re-	0r	.	.	.	0r	0r
8BB/	16d/L	16b\L	16B\	-tur	.	.	.	.	.	.
.	16dd/JJ	16gg\JJ	16F#\	et	.	.	.	.	.	.
.	.	8qqff#/	.	.	.	.	.	.	.	.
8F#/	4cc#\	4ee\	8.E\	co-	.	.	.	.	.	.
8F#/J	.	.	.	.	.	.	.	.	.	.
.	.	.	16E\	-mo-	.	.	.	.	.	.
!	!	!	!LO:N:vis=00	!	!	!	!	!	!	!
=53	=53	=53	=53	=53	=53	=53	=53	=53	=53	=53
!LO:TX:a:t=P:problem=mixed beam	!	!	!	!	!	!	!	!	!	!
8d\L	8b/L	8dd\L	8D\	-dat	.	.	.	.	.	.
8D/	8f#/	8a\	8D\	dis-	.	.	.	.	.	.
8D/	8f#/	8a\	16F#\LL	-po-	.	.	.	.	.	.
.	.	.	16D\JJ	-ri-	.	.	.	.	.	.
8D/J	8f#/J	8a\J	16F#\	-es	.	.	.	.	.	.
.	.	.	16A\	ser-	.	.	.	.	.	.
=54	=54	=54	=54	=54	=54	=54	=54	=54	=54	=54
!	!	!	!	!	!	!	!LO:N:vis=00	!	!	!
8F#\L	8.a/L	8.ccn\L	8.cn\L	-mo-	.	.	0r	.	.	.
8F#\	.	.	.	.	.	.	.	.	.	.
.	16f#/Jk	16a\Jk	16A\Jk	.	.	.	.	.	.	.
.	8qqf#/	.	.	.	.	.	.	.	.	.
8G\	4g/	4b\	4B\	-nes	.	.	.	.	.	.
8G\J	.	.	.	.	.	.	.	.	.	.
=55	=55	=55	=55	=55	=55	=55	=55	=55	=55	=55
8G\L	8g/L	8b\L	8.B\	su-	.	.	.	.	.	.
8G\	8g/	8b\	.	.	.	.	.	.	.	.
.	.	.	16A\	-os	.	.	.	.	.	.
8G\	8b/	8ee\	16G\LL	in	.	.	.	.	.	.
.	.	.	16F#\JJ	.	.	.	.	.	.	.
8G#X\J	8b/J	8ee\J	16E\LL	ju-	.	.	.	.	.	.
.	.	.	16D\JJ	.	.	.	.	.	.	.
=56	=56	=56	=56	=56	=56	=56	=56	=56	=56	=56
!LO:TX:a:t=P:problem=mixed beam	!	!	!	!	!	!	!	!	!	!
.	8qqf#/	8qqdd/	.	.	.	.	.	.	.	.
!	!	!	!	!	!LO:N:vis=00	!	!	!	!LO:N:vis=00	!LO:N:vis=00
8A\L	8.e/L	8.cc#X\L	8.C#/	-di-	0r	.	.	.	0r	0r
8E/	.	.	.	.	.	.	.	.	.	.
.	16d/Jk	16b\Jk	16BB/	-ci-	.	.	.	.	.	.
.	.	.	8qqBB/	.	.	.	.	.	.	.
8AA/	4c#/	4a/	4AA/	-o	.	.	.	.	.	.
8A\J	.	.	.	.	.	.	.	.	.	.
=57	=57	=57	=57	=57	=57	=57	=57	=57	=57	=57
!LO:TX:a:t=P:problem=mixed beam	!	!	!	!	!	!	!	!	!	!
16AA/LL	8e/L	8a\L	8A\	qui-	.	.	.	.	.	.
16A\	.	.	.	.	.	.	.	.	.	.
16AA/	8a/	8cc#\J	8c#\	-a	.	.	.	.	.	.
16A\JJ	.	.	.	.	.	.	.	.	.	.
!LO:TX:a:t=P:problem=mixed beam	!	!LO:TX:a:t=P:problem=mixed beam	!	!	!	!	!	!	!	!
8AA/L	8cc#/	8ee\L	8e\	in	.	.	.	.	.	.
8A\J	8d/J	8f#/J	8F#\	ae-	.	.	.	.	.	.
=58	=58	=58	=58	=58	=58	=58	=58	=58	=58	=58
*	*tremolo	*	*	*	*	*	*	*	*	*
*	*tremolo	*	*	*	*	*	*	*	*	*
!LO:TX:a:t=P:problem=mixed beam	!	!	!	!	!	!	!LO:N:vis=00	!	!	!
16AA/LL	8e/L	8g/L	8G\L	-ter-	.	.	0r	.	.	.
16A\	.	.	.	.	.	.	.	.	.	.
16AA/	8e/	8g/	8E\J	.	.	.	.	.	.	.
16A\JJ	.	.	.	.	.	.	.	.	.	.
!LO:TX:a:t=P:problem=mixed beam	!	!	!	!	!	!	!	!	!	!
8AA/L	8e/	8g/	4AA/	-num	.	.	.	.	.	.
8A\J	8e/J	8g/J	.	.	.	.	.	.	.	.
*	*Xtremolo	*	*	*	*	*	*	*	*	*
=59	=59	=59	=59	=59	=59	=59	=59	=59	=59	=59
!LO:TX:a:t=P:problem=mixed beam	!	!	!	!	!	!	!	!	!	!
8AA/L	8e/L	8g/L	8G\L	qui-	.	.	.	.	.	.
8A\	8a/	8cc#/	8c#\J	-a	.	.	.	.	.	.
8AA/	8cc#/	8ee/	8e\L	in	.	.	.	.	.	.
8A\J	8c#/J	8e/J	8E\J	ae-	.	.	.	.	.	.
!	!LO:LB:g=original	!	!	!	!	!	!	!	!	!
=60	=60	=60	=60	=60	=60	=60	=60	=60	=60	=60
*	*tremolo	*	*	*	*	*	*	*	*	*
!LO:TX:a:t=P:problem=mixed beam	!	!	!	!	!LO:N:vis=00	!	!	!	!LO:N:vis=00	!LO:N:vis=00
8DD/L	8d/L	8f#/L	8F#\L	-ter-	0r	.	.	.	0r	0r
8D\J	8d/	8f#/	8D\J	.	.	.	.	.	.	.
!LO:TX:a:t=P:problem=mixed beam	!	!	!	!	!	!	!	!	!	!
8DD/L	8d/	8f#/	4AA/	-num	.	.	.	.	.	.
8D\J	8d/J	8f#/J	.	.	.	.	.	.	.	.
*	*	*Xtremolo	*	*	*	*	*	*	*	*
!	!	!LO:LB:g=original	!	!	!	!	!	!	!	!
*	*Xtremolo	*	*	*	*	*	*	*	*	*
=61	=61	=61	=61	=61	=61	=61	=61	=61	=61	=61
8G#X\L	8g#X/L	8b\L	4B\	non	.	.	.	.	.	.
8G#\	8g#/	8b\	.	.	.	.	.	.	.	.
8E\	8b/	8dd\	4G#X\	n(on)	.	.	.	.	.	.
8E\J	8b/J	8dd\J	.	.	.	.	.	.	.	.
=62	=62	=62	=62	=62	=62	=62	=62	=62	=62	=62
!	!	!	!	!	!	!	!LO:N:vis=0	!	!	!
8AA\L	4a/	4cc#\	8A\	non	.	.	1r	.	.	.
!	!	!	!LO:TX:a:t=P:problem=brak oznaczenia trioli	!	!	!	!	!	!	!
8C#\	.	.	24E\LL	.	.	.	.	.	.	.
.	.	.	24F#\	.	.	.	.	.	.	.
.	.	.	24G#X\JJ	.	.	.	.	.	.	.
8D\	8r	8r	8F#\	co-	.	.	.	.	.	.
8G\J	8a/	8ee\	8E\	-mo-	.	.	.	.	.	.
!	!	!	!LO:PB:g=original	!	!	!	!	!	!	!
=63	=63	=63	=63	=63	=63	=63	=63	=63	=63	=63
!LO:TX:a:t=P:problem=mixed beam	!	!	!	!	!	!	!	!	!	!
8A\L	8f#/L	8dd\L	4D\	-Ve-	.	.	.	.	.	.
8A\	8f#/	8dd\	.	.	.	.	.	.	.	.
8AA/	8e/	8cc#\	8.E\	-bi-	.	.	.	.	.	.
8AA/J	8e/J	8cc#\J	.	.	.	.	.	.	.	.
.	.	.	16E\	-tur	.	.	.	.	.	.
=64	=64	=64	=64	=64	=64	=64	=64	=64	=64	=64
*tremolo	*	*	*	*	*	*	*	*	*	*
!	!	!LO:TX:a:t=P:problem=mixed beam	!	!	!	!	!	!	!	!
8D\L	16.f#/LL	16.d/LL	8D\	In	8A\	In	8ff#\	In	4ff#\	4aa\
.	32f#/JJk	32dd\K	.	.	.	.	.	.	.	.
8D\	16.dd\LL	16.ff#\	16D\	me-	8A\	me-	8ff#\	me-	.	.
.	.	.	16D\	.	.	.	.	.	.	.
.	32ff#\JJk	32aa\JJk	.	.	.	.	.	.	.	.
.	8qqff#/	8qqaa/	.	.	.	.	.	.	.	.
8D\	8ee\L	8gg\L	8d\	-mo-	8A\	-mo-	8ff#\	-mo-	4r	4r
8D\J	16a\L	16ff#\L	16d\	-ri-	16A\	-ri-	16ff#\	-ri-	.	.
.	16g\JJ	16ee\JJ	16d\	-a	16A\	-a	16ff#\	-a	.	.
*Xtremolo	*	*	*	*	*	*	*	*	*	*
=65	=65	=65	=65	=65	=65	=65	=65	=65	=65	=65
.	.	8qqee/	.	.	.	.	.	.	.	.
8d\L	16f#/LL	16dd\LL	8D\	ae-	8A\	ae-	8ff#\	ae-	8ff#\L	8aa\L
.	16e/	16cc#\	.	.	.	.	.	.	.	.
8A\	16f#/	16dd\	8D\	-ter-	8A\	-ter-	8ff#\	-ter-	16ff#\L	16aa\L
.	16f#/JJ	16dd\JJ	.	.	.	.	.	.	16ff#\JJ	16aa\JJ
8F#\	4f#/	4dd\	4d\	-na	4A\	-na	4ff#\	-na	8ff#\L	8aa\L
8D\J	.	.	.	.	.	.	.	.	8ff#\J	8aa\J
=66	=66	=66	=66	=66	=66	=66	=66	=66	=66	=66
*tremolo	*	*	*	*	*	*	*	*	*	*
!	!LO:TX:a:t=P:problem=mixed beam	!LO:TX:a:t=P:problem=mixed beam	!	!	!	!	!	!	!	!
8G\L	16gg\LL	16bb\LL	4G\	e-	4B\	e-	4gg\	e-	4gg\	4bb\
.	16b/	16g/	.	.	.	.	.	.	.	.
8G\	16g/	16b/	.	.	.	.	.	.	.	.
.	16b/JJ	16dd/JJ	.	.	.	.	.	.	.	.
8G\	16dd\LL	16gg\LL	4G\	-rit	4B\	-rit	4gg\	-rit	8r	8r
.	16gg\	16bb\	.	.	.	.	.	.	.	.
8G\J	16bb\	16ddd\	.	.	.	.	.	.	8gg\	8bb\
.	16gg\JJ	16bb\JJ	.	.	.	.	.	.	.	.
=67	=67	=67	=67	=67	=67	=67	=67	=67	=67	=67
.	.	8qqgg/	.	.	.	.	.	.	.	.
8D\L	16ff#\LL	16aa\LL	4D/	Jus-	8B\L	jus-	8gg\L	jus-	8gg\L	8bb\L
.	16ee\	16gg#X\	.	.	.	.	.	.	.	.
8D\	16ff#\	16aa\	.	.	8A\J	.	8ff#\J	.	16ff#\L	16aa\L
.	16ff#\JJ	16aa\JJ	.	.	.	.	.	.	16ff#\JJ	16aa\JJ
8D\	4ff#\	4aa\	4d\	-tus	4A\	-tus	4ff#\	-tus	8ff#\L	8aa\L
8D\J	.	.	.	.	.	.	.	.	8ff#\J	8aa\J
!	!	!	!	!	!	!	!LO:LB:g=original	!	!	!
=68	=68	=68	=68	=68	=68	=68	=68	=68	=68	=68
!	!LO:TX:a:t=P:problem=mixed beam	!LO:TX:a:t=P:problem=mixed beam	!	!	!	!	!	!	!	!
8D\L	16ff#\LL	16aa\LL	8d\	ab	8A\	ab	8ff#\	ab	4ff#\	4aa\
.	16d/	16f#/	.	.	.	.	.	.	.	.
8D\	16f#/	16a/	8d\	au-	8A\	au-	8ff#\	au-	.	.
.	16a/JJ	16dd/JJ	.	.	.	.	.	.	.	.
8D\	16dd\LL	16ff#\LL	8D/	-di-	8A\	-di-	8ff#\	-di-	8r	8r
.	16ff#\	16aa\	.	.	.	.	.	.	.	.
8D\J	16aa\	16ddd\	8D/	-ti-	8A\	-ti-	8ff#\	-ti-	8ff#\	8aa\
.	16ff#\JJ	16ff#\JJ	.	.	.	.	.	.	.	.
*Xtremolo	*	*	*	*	*	*	*	*	*	*
!LO:LB:g=original	!	!	!	!	!	!	!	!	!	!
=69	=69	=69	=69	=69	=69	=69	=69	=69	=69	=69
!LO:TX:a:t=P:problem=mixed beam	!	!	!	!	!	!	!	!	!	!
8G\L	8ee\L	16ggn\LL	4A\	-o-	4G/	-o-	4ee\	-o-	8ff#\L	8aa\L
.	.	16ff#\	.	.	.	.	.	.	.	.
8AA\	(24dd\L	16gg\	.	.	.	.	.	.	16ee\L	16gg\L
.	24ee\	.	.	.	.	.	.	.	.	.
.	.	16gg\JJ	.	.	.	.	.	.	16ee\JJ	16gg\JJ
.	24dd\JJ)	.	.	.	.	.	.	.	.	.
8AA\	4ee\	4gg\	4AA/	-nem	4G/	-ne	4ee\	-ne	8ee\L	8gg\L
8AA\J	.	.	.	.	.	.	.	.	8ee\J	8gg\J
=70	=70	=70	=70	=70	=70	=70	=70	=70	=70	=70
!	!LO:TX:a:t=P:problem=mixed beam	!LO:TX:a:t=P:problem=mixed beam	!	!	!	!	!	!	!	!
*tremolo	*Xtuplet	*	*	*	*	*	*	*	*	*2\right
8AA/L	16ee\LL	16gg\LL	8C#/	ma-	8G/	mal-	8ee\	mal-	2ee\	2gg\
.	16e/	16a/	.	.	.	.	.	.	.	.
8AA/	16a/	16cc#/	8C#/	-la	8G/	-la	8ee\	-la	.	.
.	16cc#/JJ	16ee/JJ	.	.	.	.	.	.	.	.
!	!LO:TX:a:t=P:problem=brak oznaczenia trioli	!	!	!	!	!	!	!	!	!
8AA/	24ee\LL	24gg\LL	8AA/	no(n)	8G/	non	8ee\	n(on)	.	.
.	24ff#\	24aa\	.	.	.	.	.	.	.	.
.	24gg\JJ	24bb\JJ	.	.	.	.	.	.	.	.
8AA/J	16ff#\LL	16aa\LL	8AA/	ti-	8G/	ti-	8ee\	ti-	.	.
.	16ee\JJ	16gg\JJ	.	.	.	.	.	.	.	.
!	!	!LO:LB:g=original	!	!	!	!	!	!	!	!
*Xtremolo	*	*	*	*	*	*	*	*	*	*
=71	=71	=71	=71	=71	=71	=71	=71	=71	=71	=71
!LO:TX:a:t=P:problem=mixed beam	!	!	!	!	!	!	!	!	!	!
8D\L	4dd\	4ff#\	8D\L	-me-	4d\	-me-	4ff#\	-me-	4dd\	4ff#\
8D\	.	.	8G#X\J	.	.	.	.	.	.	.
!	!	!	!LO:TX:a:t=P:problem=mixed beam	!	!	!	!	!	!	!
8A\	4cc#\	4ee\	8A\L	-bit	4c#\	-bit	4ee\	-bit	4a/	4ee\
8AA/J	.	.	8AA/J	.	.	.	.	.	.	.
=72	=72	=72	=72	=72	=72	=72	=72	=72	=72	=72
*tremolo	*	*	*	*	*	*	*	*	*	*
!	!	!LO:TX:a:t=P:problem=takty 76-77 wpisane w repetycję	!	!	!	!	!	!	!	!LO:TX:a:t=31
!	!LO:TX:a:t=P:problem=brak oznaczenia trioli	!	!	!	!LO:TX:a:t=P:problem=skreślony tekst	!	!	!	!LO:N:vis=00	!LO:N:vis=00
8D\L	24dd\LL	24ff#\LL	16D\	Pa-	16G/	.	16cc#\	pa-	0r	0r
.	24ee\	24gg\	.	.	.	.	.	.	.	.
.	.	.	16D\	-ra-	16G/	.	16cc#\	-ra-	.	.
.	24ff#\JJ	24aa\JJ	.	.	.	.	.	.	.	.
!	!	!	!	!	!LO:LB:g=original	!	!	!	!	!
8D\	16a/LL	16ccn\LL	16D\	-tum	16G/	cor	16cc#\	-tum	.	.
.	16g/JJ	16b\JJ	16D\	cor	16G/	.	16cc#\	cor	.	.
.	.	8qqdd/	.	.	.	.	.	.	.	.
!	!LO:LB:g=original	!	!LO:LB:g=original	!	!	!	!	!	!	!
8D\	16a/LL	16cc\LL	8d\	e-	8G/	e-	8cc#\	e-	.	.
.	16g/	16b\	.	.	.	.	.	.	.	.
.	.	8qqdd/	.	.	.	.	.	.	.	.
8D\J	16a/	16cc\	8d\	-ius	8G/	-ius	8cc#\	-jus	.	.
.	16g/JJ	16b\JJ	.	.	.	.	.	.	.	.
!	!	!LO:TX:a:t=P:problem=oznaczenie bis pod łukiem nad kreską taktową	!	!	!	!	!	!	!	!
=73	=73	=73	=73	=73	=73	=73	=73	=73	=73	=73
8D\L	16a/LL	24ccn\LL	16D\	spe-	16A/	spe-	16cc#\	spe-	.	.
.	.	24ff#\	.	.	.	.	.	.	.	.
.	32a/L	.	16D\	-ra-	16A/	-ra-	16cc#\	-ra-	.	.
.	.	24gg\JJ	.	.	.	.	.	.	.	.
.	32b/JJJ	.	.	.	.	.	.	.	.	.
.	8qqb/	.	.	.	.	.	.	.	.	.
8D\	16cc#\LL	16aa\LL	16D\	-re	16A/	-re	16cc#\	-re	.	.
.	16b\JJ	16gg\JJ	16D\	in	16A/	in	16cc#\	in	.	.
!	!	!	!LO:TX:a:t=P:problem= niejednoznacznie zapisane słowo "Domine"	!	!	!	!	!	!	!
8D\	16a/LL	16ff#\LL	16.D\	Do-	16.A/	Do-	16.cc#\	Do-	.	.
.	16cc#/	16ee\	.	.	.	.	.	.	.	.
.	.	.	32C#/	-mi-	32A/	-mi-	32cc#\	-mi-	.	.
8D\J	16b/	16dd\	8D/	-ne	8G/	-no	8b\	-no	.	.
.	16a/JJ	16cc\JJ	.	.	.	.	.	.	.	.
=74	=74	=74	=74	=74	=74	=74	=74	=74	=74	=74
!	!LO:TX:a:t=P:problem=brak oznaczenia trioli	!	!	!	!	!	!	!	!	!
8D\L	24a/LL	24ff#\LL	8D/	Con-	8A\	Con-	8cc#\	con-	.	.
.	24b/	24gg\	.	.	.	.	.	.	.	.
.	24ccn/JJ	24aa\JJ	.	.	.	.	.	.	.	.
8D\	16a/LL	16ccn\LL	8d\	-fir-	8A\	-fir-	8cc#\	-fir-	.	.
.	16g/JJ	16b\JJ	.	.	.	.	.	.	.	.
.	.	8qqdd/	.	.	.	.	.	.	.	.
8D\	16a/LL	16cc\LL	8d\	-ma-	8A\	-ma-	8cc#\	-ma-	.	.
.	16g/	16b\	.	.	.	.	.	.	.	.
.	.	8qqdd/	.	.	.	.	.	.	.	.
8D\J	16a/	16cc\	8d\	-tum	8A\	-tum	8cc#\	-ta	.	.
.	16g/JJ	16b\JJ	.	.	.	.	.	.	.	.
*Xtremolo	*	*	*	*	*	*	*	*	*	*
=75	=75	=75	=75	=75	=75	=75	=75	=75	=75	=75
8D\L	16a/LL	24ccn\LL	8D\	est	8A\	est	8cc#\	est	.	.
.	.	24ff#\	.	.	.	.	.	.	.	.
.	32a/L	.	.	.	.	.	.	.	.	.
.	.	24gg\JJ	.	.	.	.	.	.	.	.
.	32b/JJJ	.	.	.	.	.	.	.	.	.
8D\	16ccn\LL	16aa\LL	8D\	cor	8A\	cor	8cc#\	cor	.	.
.	16a\JJ	16gg\JJ	.	.	.	.	.	.	.	.
8F#\	16.a/LL	16ff#\LL	8D\	e-	8A\	e-	8cc#\	e-	.	.
.	.	16ee\	.	.	.	.	.	.	.	.
.	32cc/K	.	.	.	.	.	.	.	.	.
8F#\J	16b/	16dd\	8D\	-ius	8A\	-ius	8b\	-jus	.	.
.	16a/JJ	16cc\JJ	.	.	.	.	.	.	.	.
=76	=76	=76	=76	=76	=76	=76	=76	=76	=76	=76
!	!	!	!	!	!	!	!	!	!LO:N:vis=00	!LO:N:vis=00
8G\L	16g/LL	16b\LL	8G\	non	8cn\	non	8ee\	non	0r	0r
.	16b/	16gg\	.	.	.	.	.	.	.	.
8G\	16ccn/	16ee\	16G\	co-	16B\	Com-	16dd\	com-	.	.
.	16a/JJ	16cc#X\JJ	16G\	-mo-	16A\	-mo-	16ccn\	-mo-	.	.
8F#\	16b/LL	16dd\LL	16F#\	-ve-	16B\	-ve-	16dd\	-ve-	.	.
.	16a/	16ccn\	16F#\	-bi-	16A\	-bi-	16cc\	-bi-	.	.
8D\J	16g/	16b\	8D\	-tur	16G/	-tur	16b\LL	-tur	.	.
.	16f#/JJ	16a\JJ	.	.	16F#/	.	16a\JJ	.	.	.
!	!	!	!	!	!	!	!LO:LB:g=original	!	!	!
=77	=77	=77	=77	=77	=77	=77	=77	=77	=77	=77
!LO:TX:a:t=P:problem=mixed beam	!	!	!	!	!	!	!	!	!	!
8G\L	16g/LL	16b\LL	8G\	{non	8c#\	do-	8ee\	Do-	.	.
.	16b/	16gg\	.	.	.	.	.	.	.	.
8GG/	16cc#/	16ee\	16G\	co-	16B\	-nec	16dd\	-nec	.	.
.	16a/JJ	16cc#X\JJ	16G\	-mo-	16A\	des-	16cc#X\	des-	.	.
!	!	!	!	!	!	!	!LO:N:vis=8	!	!	!
8F#\	16b/LL	16dd\LL	16F#\	-ve-	16B\	-pi-	16dd\	-pi-	.	.
!	!	!	!	!	!	!	!LO:N:vis=8	!	!	!
.	16a/	16ccn\	16F#\	-bi-	16A\	-ci-	16cc#X\	-ci-	.	.
!	!	!	!	!	!LO:LB:g=original	!	!	!	!	!
8D\J	16g/	16b\	8D\	-tur}	16G/	-at	16b\LL	-at	.	.
.	16f#/JJ	16a\JJ	.	.	16F#/	.	16a\JJ	.	.	.
=78	=78	=78	=78	=78	=78	=78	=78	=78	=78	=78
!LO:TX:a:t=P:problem=mixed beam	!	!	!	!	!	!	!	!	!	!
8G\L	8g/L	24b/LL	16G\	do-	16B\	i-	16dd\	I-	.	.
.	.	24a/	.	.	.	.	.	.	.	.
.	.	.	16G\	-nec	16B\	-ni-	16dd\	-ni-	.	.
.	.	24g/JJ	.	.	.	.	.	.	.	.
8c#\	16b/L	16ee\LL	16C#/	des-	16d\	-mi-	16ee\	-mi-	.	.
.	16a/JJ	16ccn\JJ	16C#/	-pi-	16A/	-cos	16ccn\	-cos	.	.
!	!	!	!LO:LB:g=original	!	!	!	!	!	!	!
8d\	8g/L	8b/L	4D\	-ci-	8G/L	su-	8b\L	su-	.	.
8D/J	8f#/J	8a/J	.	.	8F#/J	.	8a\J	.	.	.
=79	=79	=79	=79	=79	=79	=79	=79	=79	=79	=79
!LO:TX:a:t=P:problem=mixed beam	!	!LO:TX:a:t=P:problem=mixed beam	!	!	!	!	!	!	!	!
8GG/L	8g\L	8g/L	4G\	-at	4G/	-os	8g\	-os	.	.
8G\	8b\	8dd\	.	.	.	.	8dd\	dis-	.	.
8G\	8b\	8dd\	4r	.	4r	.	16dd\LL	-per-	.	.
.	.	.	.	.	.	.	16a\JJ	.	.	.
8G\J	8b\J	8dd\J	.	.	.	.	16a\LL	-sit	.	.
.	.	.	.	.	.	.	16g\JJ	.	.	.
=80	=80	=80	=80	=80	=80	=80	=80	=80	=80	=80
!	!	!	!LO:N:vis=00	!	!LO:N:vis=00	!	!	!	!LO:N:vis=00	!LO:N:vis=00
8G\L	16cc#\LL	16ee\LL	0r	.	0r	.	16ee\LL	de-	0r	0r
.	16b\	16gg\	.	.	.	.	16gg\	.	.	.
8D\J	16a\	16ff#\	.	.	.	.	16ff#\	.	.	.
.	16cc#\JJ	16aa\JJ	.	.	.	.	16aa\JJ	.	.	.
.	8qqcc#/	8qqaa/	.	.	.	.	.	.	.	.
8BB/L	4b\	4gg\	.	.	.	.	4gg\	-dit	.	.
8GG/J	.	.	.	.	.	.	.	.	.	.
=81	=81	=81	=81	=81	=81	=81	=81	=81	=81	=81
8D\L	8cc#\L	8ee\L	.	.	.	.	8ee\	de-	.	.
8D\	8cc#\	8ee\	.	.	.	.	16ccn\	-dit	.	.
.	.	.	.	.	.	.	16ee\	pau-	.	.
.	.	.	.	.	.	.	8qqdd/	.	.	.
8F#\	8cc#\	8dd\	.	.	.	.	8.cc\	-pe-	.	.
8D\J	8a\J	8ccn\J	.	.	.	.	.	.	.	.
.	.	.	.	.	.	.	16cc\	-ri-	.	.
=82	=82	=82	=82	=82	=82	=82	=82	=82	=82	=82
.	.	.	.	.	.	.	8qqcc#/	.	.	.
8G\L	16g\LL	16b\LL	.	.	.	.	4b\	-bus	.	.
.	16b\	16gg\	.	.	.	.	.	.	.	.
8D\J	16a\	16ff#\	.	.	.	.	.	.	.	.
.	16cc#\JJ	16aa\JJ	.	.	.	.	.	.	.	.
.	8qqcc#/	.	.	.	.	.	.	.	.	.
8BB/L	4b\	4gg\	.	.	.	.	4r	.	.	.
8GG/J	.	.	.	.	.	.	.	.	.	.
!	!	!LO:LB:g=original	!	!	!	!	!	!	!	!
=83	=83	=83	=83	=83	=83	=83	=83	=83	=83	=83
8D\L	8cc#\L	8ee\L	.	.	.	.	8ee\	de-	.	.
8D\	8cc#\	8ee\	.	.	.	.	16cc#\	-dit	.	.
.	.	.	.	.	.	.	16ee\	pau-	.	.
.	.	.	.	.	.	.	8qqdd/	.	.	.
8F#\	8b\	8dd\	.	.	.	.	8.cc#\	-pe-	.	.
8D\J	8a\J	8ccn\J	.	.	.	.	.	.	.	.
.	.	.	.	.	.	.	16cc#\	-ri-	.	.
!	!LO:LB:g=original	!	!	!	!	!	!	!	!	!
=84	=84	=84	=84	=84	=84	=84	=84	=84	=84	=84
*tremolo	*	*	*	*	*	*	*	*	*	*
!	!	!	!LO:N:vis=00	!	!LO:N:vis=00	!	!	!	!LO:N:vis=00	!LO:N:vis=00
8E\L	8g/L	2b\	0r	.	0r	.	8b\	-bus	0r	0r
8E\	8g/	.	.	.	.	.	8b\	jus-	.	.
8E\	8g/	.	.	.	.	.	8b\	-ti-	.	.
8E\J	8g/J	.	.	.	.	.	16cc#X\	-ti-	.	.
.	.	.	.	.	.	.	16dd\	-a	.	.
*	*Xtremolo	*	*	*	*	*	*	*	*	*
!	!	!	!	!	!	!	!LO:LB:g=original	!	!	!
=85	=85	=85	=85	=85	=85	=85	=85	=85	=85	=85
8AA/L	8e/L	8cc#X\L	.	.	.	.	4cc#X\	E-	.	.
8AA/	8e/	8cc#\	.	.	.	.	.	.	.	.
8AA/	8f#/	8dd\	.	.	.	.	4dd\	-jus	.	.
8AA/J	8f#/J	8dd\J	.	.	.	.	.	.	.	.
*Xtremolo	*	*	*	*	*	*	*	*	*	*
=86	=86	=86	=86	=86	=86	=86	=86	=86	=86	=86
8A\L	8cc#\L	8ee\L	.	.	.	.	8ee\	manct	.	.
8F#\	8cc#\J	8ee\J	.	.	.	.	16ff#\	.	.	.
.	.	.	.	.	.	.	16gg\	in	.	.
8B\	16dd\LL	8ff#\L	.	.	.	.	8ff#\	sae-	.	.
.	16b\J	.	.	.	.	.	.	.	.	.
8G\J	8g\J	16gg\L	.	.	.	.	16gg\	-cu-	.	.
.	.	16ee\JJ	.	.	.	.	16ee\	-lu(m)	.	.
=87	=87	=87	=87	=87	=87	=87	=87	=87	=87	=87
!LO:TX:a:t=P:problem=mixed beam	!	!	!	!	!	!	!	!	!	!
8A\L	8dd\L	8ff#\L	.	.	.	.	4dd\	sae-	.	.
8A\	8dd\	8ff#\	.	.	.	.	.	.	.	.
8AA/	8cc#X\	8ee\	.	.	.	.	4ee\	-cu-	.	.
8AA/J	8cc#\J	8ee\J	.	.	.	.	.	.	.	.
=88	=88	=88	=88	=88	=88	=88	=88	=88	=88	=88
!	!LO:TX:a:t=P:problem=mixed beam	!LO:TX:a:t=P:problem=mixed beam	!LO:N:vis=00	!	!LO:N:vis=00	!	!	!	!LO:N:vis=00	!LO:N:vis=00
8D\L	8dd\L	8ff#\L	0r	.	0r	.	4dd\	-li	0r	0r
8D\	8dd\	8ff#\	.	.	.	.	.	.	.	.
8D\	8f#/	8a/	.	.	.	.	8a\	cor-	.	.
8D\J	8g/J	8b/J	.	.	.	.	8b\	-nu	.	.
=89	=89	=89	=89	=89	=89	=89	=89	=89	=89	=89
8D\L	8a/L	8ccn\L	.	.	.	.	4ccn\	e-	.	.
8D\	8a/	8cc\	.	.	.	.	.	.	.	.
8F#\	8g/	8b\	.	.	.	.	4b\	-jus	.	.
8F#\J	8g/J	8b\J	.	.	.	.	.	.	.	.
=90	=90	=90	=90	=90	=90	=90	=90	=90	=90	=90
*tremolo	*	*	*	*	*	*	*	*	*	*
8G\L	8b\L	8dd\L	.	.	.	.	4dd\	Cor-	.	.
8G\	8b\	8dd\	.	.	.	.	.	.	.	.
8G\	8cc#\	8ee\	.	.	.	.	4ee\	-nu	.	.
8G\J	8ee\J	8gg\J	.	.	.	.	.	.	.	.
*Xtremolo	*	*	*	*	*	*	*	*	*	*
=91	=91	=91	=91	=91	=91	=91	=91	=91	=91	=91
!LO:TX:a:t=P:problem=mixed beam	!	!	!	!	!	!	!	!	!	!
8B\L	8dd\L	8ffn\L	.	.	.	.	4ffn\	e-	.	.
8G\	8dd\	8ff\	.	.	.	.	.	.	.	.
8c#\	8cc#\	8ee\	.	.	.	.	4ee\	-jus	.	.
8C#/J	8cc#\J	8ee\J	.	.	.	.	.	.	.	.
=92	=92	=92	=92	=92	=92	=92	=92	=92	=92	=92
!	!	!	!LO:N:vis=0	!	!LO:N:vis=0	!	!	!	!LO:N:vis=00	!LO:N:vis=00
8c#\L	8cc#\L	8ee\L	1r	.	1r	.	4aa\	ex-	0r	0r
8A\	8cc#\	8ee\	.	.	.	.	.	.	.	.
8d\	8a\	8ff#X\	.	.	.	.	4ff#X\	-al-	.	.
8c#\J	8a\J	8ff#\J	.	.	.	.	.	.	.	.
=93	=93	=93	=93	=93	=93	=93	=93	=93	=93	=93
8B\L	4b\	4gg\	.	.	.	.	16gg\LL	-ta-	.	.
.	.	.	.	.	.	.	16ee\JJ	.	.	.
8A\	.	.	.	.	.	.	16dd\LL	-bi-	.	.
.	.	.	.	.	.	.	16cc#X\JJ	.	.	.
8B\	8r	8r	.	.	.	.	16dd\LL	-tur	.	.
.	.	.	.	.	.	.	16ee\JJ	.	.	.
8c#\J	8a/	8ccn\	.	.	.	.	16ccn\LL	in	.	.
.	.	.	.	.	.	.	16a\JJ	.	.	.
=94	=94	=94	=94	=94	=94	=94	=94	=94	=94	=94
!LO:TX:a:t=P:problem=mixed beam	!	!	!	!	!	!	!	!	!	!
8d\L	8g/L	8b/L	2r	.	2r	.	4g\	glo-	.	.
8d\	8g/	8b/	.	.	.	.	.	.	.	.
8D/	8f#/	8a/	.	.	.	.	4a\	-ri-	.	.
8D/J	8f#/J	8a/J	.	.	.	.	.	.	.	.
=95	=95	=95	=95	=95	=95	=95	=95	=95	=95	=95
!LO:TX:a:t=P:problem=mixed beam	!	!	!	!	!	!	!	!	!	!
8G\L	16.g/LL	16.g/LL	8r	.	8r	.	8g\	-a	.	.
.	32g/K	32b/K	.	.	.	.	.	.	.	.
8GG/	16.g/	16.b/	8G\	pe-	16B\	Pec-	8dd\	pec-	.	.
.	.	.	.	.	16B\	-ca-	.	.	.	.
.	32b/JJk	32dd/JJk	.	.	.	.	.	.	.	.
8GG/	16.b\LL	16.dd\LL	8G\	-ca-	8B\	-tor	8dd\	-ca-	.	.
.	32dd\K	32gg\K	.	.	.	.	.	.	.	.
8GG/J	16.gg\	16.bb\	16G\	-tor	8B\	vi-	16dd\	-tor	.	.
.	.	.	16G\	vi-	.	.	16dd\	vi-	.	.
.	32b\JJk	32dd\JJk	.	.	.	.	.	.	.	.
=96	=96	=96	=96	=96	=96	=96	=96	=96	=96	=96
!LO:TX:a:t=P:problem=mixed beam	!	!	!	!	!	!	!	!	!LO:N:vis=00	!LO:N:vis=00
16D/LL	16a/LL	(16ccn\LL	4d\	-de-	4A\	-de-	4cc#X\	-de-	0r	0r
16d\	16g/	16b\	.	.	.	.	.	.	.	.
16c#\	16a/	16cc\)	.	.	.	.	.	.	.	.
16d\JJ	16a/JJ	16cc\JJ	.	.	.	.	.	.	.	.
!	!	!LO:LB:g=original	!	!	!	!	!	!	!	!
16A\LL	4a/	4cc\	4D/	-bit	4A\	-bit	4cc#\	-bit	.	.
16F#\J	.	.	.	.	.	.	.	.	.	.
8D\J	.	.	.	.	.	.	.	.	.	.
!	!	!	!	!	!	!	!LO:LB:g=original	!	!	!
=97	=97	=97	=97	=97	=97	=97	=97	=97	=97	=97
*tremolo	*	*	*	*	*	*	*	*	*	*
8D\L	16.a/LL	16.cc#\LL	4d\	et	4A\	et	4cc#\	et	.	.
.	32a/K	32cc#\K	.	.	.	.	.	.	.	.
8D\	16.a/	16.cc#\	.	.	.	.	.	.	.	.
.	32a/JJk	32cc#\JJk	.	.	.	.	.	.	.	.
8D\	16.a/LL	16.ccn\LL	8d\	i-	8A\	i-	8cc#\	i-	.	.
.	32ccn/K	32ff#\K	.	.	.	.	.	.	.	.
8D\J	16.ff#/	16.aa\	8d\	-ras-	8A\	-ras-	8cc#\	-ra-	.	.
.	32a/JJk	32cc\JJk	.	.	.	.	.	.	.	.
*Xtremolo	*	*	*	*	*	*	*	*	*	*
=98	=98	=98	=98	=98	=98	=98	=98	=98	=98	=98
!LO:TX:a:t=P:problem=mixed beam	!	!	!	!	!	!	!	!	!	!
.	.	8qqcc#/	.	.	.	.	.	.	.	.
16GG/LL	16.g/LL	16b/LL	4G\	-ce-	4G/	-ce-	4b\	-sce-	.	.
16G/	.	16a/	.	.	.	.	.	.	.	.
.	32f#/K	.	.	.	.	.	.	.	.	.
16F#/	16.g/	16b/	.	.	.	.	.	.	.	.
16G/JJ	.	16b/JJ	.	.	.	.	.	.	.	.
.	32g/JJk	.	.	.	.	.	.	.	.	.
16D/LL	4g/	4b/	4G\	-tur	4G/	-tur	4b\	-tur	.	.
16BB/J	.	.	.	.	.	.	.	.	.	.
8GG/J	.	.	.	.	.	.	.	.	.	.
=99	=99	=99	=99	=99	=99	=99	=99	=99	=99	=99
*tremolo	*	*	*	*	*	*	*	*	*	*
8G\L	16.g/LL	16.b/LL	8G\	den-	8G/	Den-	8b\	den-	.	.
.	32g/K	32b/K	.	.	.	.	.	.	.	.
8G\	16.g/	16.b/	16G\	-ti-	16G/	-ti-	16b\	-ti-	.	.
.	.	.	16G\	-bus	16G/	-bus	16b\	-bus	.	.
.	32g/JJk	32b/JJk	.	.	.	.	.	.	.	.
!	!LO:LB:g=original	!	!	!	!	!	!	!	!	!
8G\	16.g/LL	16.b\LL	8G\	su-	8G/	su-	8b\	su-	.	.
.	32b/K	32dd\K	.	.	.	.	.	.	.	.
8G\J	16.dd/	16.gg\	8G\	-i	8G/	-i	8a\	-is	.	.
.	32g/JJk	32b\JJk	.	.	.	.	.	.	.	.
=100	=100	=100	=100	=100	=100	=100	=100	=100	=100	=100
!	!	!	!LO:TX:a:t=P:problem=mixed beam	!	!	!	!	!	!LO:N:vis=1	!LO:N:vis=1
8D\L	4g/	4b/	8d\L	fre-	4G/	fre-	4b\	fre-	1.r	1.r
8D\	.	.	8D/J	.	.	.	.	.	.	.
8D\	4f#/	4a/	4D/	-met	4F#/	-met	4a\	-met	.	.
8D\J	.	.	.	.	.	.	.	.	.	.
!	!	!	!	!	!LO:LB:g=original	!	!	!	!	!
*Xtremolo	*	*	*	*	*	*	*	*	*	*
=101	=101	=101	=101	=101	=101	=101	=101	=101	=101	=101
!	!	!	!	!	!LO:TX:a:t=P:problem=niewyraźny tekst	!	!	!	!	!
2G\	16.g/LL	16.b/LL	8G\	{fre-	8G/	.	8b\	.	.	.
.	32g/K	32b/K	.	.	.	.	.	.	.	.
.	16.g/	16.b/	8G\	-met}	8G/	.	8b\	e	.	.
.	32g/JJk	32b/JJk	.	.	.	.	.	.	.	.
.	16.g/LL	16.b\LL	8G\	e	8G/	e	8b\	ta-	.	.
.	32b/K	32dd\K	.	.	.	.	.	.	.	.
.	16.dd/	16.gg\	8G\	ta-	8G/	ta-	8b\	.	.	.
.	32g/JJk	32b\JJk	.	.	.	.	.	.	.	.
=102	=102	=102	=102	=102	=102	=102	=102	=102	=102	=102
*tremolo	*	*	*	*	*	*	*	*	*	*
!	!	!	!LO:TX:a:t=P:problem=mixed beam	!	!	!	!	!	!	!
8D\L	4g/	4b/	8d\L	-bes-	4G/	-bes-	4b\	-bes-	.	.
8D\	.	.	8D/J	.	.	.	.	.	.	.
8D\	4f#/	4a/	4D/	-cet	4F#/	-cet	4a\	-cet	.	.
8D\J	.	.	.	.	.	.	.	.	.	.
!	!	!	!LO:LB:g=original	!	!	!	!	!	!	!
*Xtremolo	*	*	*	*	*	*	*	*	*	*
=103	=103	=103	=103	=103	=103	=103	=103	=103	=103	=103
!LO:TX:a:t=P:problem=mixed beam	!	!LO:TX:a:t=P:problem=klamra łukowa	!	!	!	!	!	!	!	!
8A\L	(24cc#\LL	(24cc#\LL	8A\	de-	8c#\	de-	8ff#\	de-	4a/	4ee\
.	24b\	24b\	.	.	.	.	.	.	.	.
.	24a\JJ)	24a\JJ)	.	.	.	.	.	.	.	.
!	!	!LO:TX:a:t=P:problem=klamra łukowa	!	!	!	!	!	!	!	!
8AA/	(24a\LL	(24cc#\LL	8A\	-si-	8c#\	-si-	8ee\	-si-	.	.
.	24b\	24dd\	.	.	.	.	.	.	.	.
.	24cc#\JJ)	24ee\JJ)	.	.	.	.	.	.	.	.
!	!	!LO:TX:a:t=P:problem=klamra łukowa	!	!	!	!	!	!	!	!
8A\	(24cc#\LL	(24ee\LL	8A\	-de-	8e\	-de-	8gg\	-de-	8r	8r
.	24dd\	24ff#\	.	.	.	.	.	.	.	.
.	24ee\JJ)	24gg\JJ)	.	.	.	.	.	.	.	.
!	!	!LO:TX:a:t=P:problem=klamra łukowa	!	!	!	!	!	!	!	!
8A\J	(24ee\LL	(24gg\LL	16A\	-ri-	16d\	-ri-	16ff#\	-ri-	8a/	8ee\
.	24dd\	24ff#\	.	.	.	.	.	.	.	.
.	.	.	16A\	-um	16c#\	-um	16ee\	-um	.	.
.	24cc#\JJ)	24ee\JJ)	.	.	.	.	.	.	.	.
=104	=104	=104	=104	=104	=104	=104	=104	=104	=104	=104
8D\L	(24dd\LL	24ff#\LL	8D/	pe-	8d\	pec-	8ff#\	Pec-	8dd\L	8ff#\L
.	24ee\	24gg\	.	.	.	.	.	.	.	.
.	24ff#\JJ)	24aa\JJ	.	.	.	.	.	.	.	.
8D\J	16ff#\LL	16aa\LL	8d\	-ca-	8d\	-ca-	8ff#\	-ca-	16dd\L	16ff#\L
.	16dd\JJ	16ff#\JJ	.	.	.	.	.	.	16dd\JJ	16ff#\JJ
16d\LL	16dd/LL	16dd/LL	8d\	-to-	8d\	-to-	8ff#\	-to-	8dd\L	8ff#\L
16A\	16a/	16a/	.	.	.	.	.	.	.	.
16F#\	16f#/	16f#/	8D/	-rum	8d\	-rum	8ff#\	-rum	8dd\J	8ff#\J
16D\JJ	16d/JJ	16d/JJ	.	.	.	.	.	.	.	.
=105	=105	=105	=105	=105	=105	=105	=105	=105	=105	=105
!LO:TX:a:t=P:problem=mixed beam	!	!	!	!	!	!	!	!	!	!
8D\L	16dd\LL	16ff#\LL	8D\L	pe-	8d\L	pe-	8ff#\L	pe-	8dd\L	8ff#\L
.	16ee\	16aa\	.	.	.	.	.	.	.	.
8G\	16ff#\	16bb\	8G\J	.	8e\J	.	8gg\J	.	8ee\	8gg\
.	16ee\JJ	16gg\JJ	.	.	.	.	.	.	.	.
8A\	8dd\L	8ff#\L	8A\	-ri-	8d\	-ri-	8ff#\	-ri-	8dd\	8ff#\
8AA/J	8cc#\J	8ee\J	8AA/	-bit	8c#\	-bit	8ee\	-bit	8a\J	8ee\J
!LO:LB:g=original	!	!LO:LB:g=original	!	!	!	!	!	!	!	!
=106	=106	=106	=106	=106	=106	=106	=106	=106	=106	=106
8d\L	8ddd\L	8ddd\L	4d\	Glo-	4f#\	Glo-	4aa\	Glo-	4dd\	4ff#\
8d\	8ff#\J	8aa\J	.	.	.	.	.	.	.	.
8c#\	16ff#\LL	16aa\LL	8c#\	-ri-	16f#\LL	-ri-	16aa\LL	-ri-	4dd\	4ff#\
.	16ee\	16gg\	.	.	16e\JJ	.	16gg\JJ	.	.	.
8c#\J	16a\	16ff#\	8c#\	-a	16A/LL	-a	16ff#\LL	-a	.	.
.	16g\JJ	16ee\JJ	.	.	16G/JJ	.	16ee\JJ	.	.	.
!	!	!	!	!	!	!	!LO:LB:g=original	!	!	!
=107	=107	=107	=107	=107	=107	=107	=107	=107	=107	=107
8B\L	(16f#/LL	16dd\LL	4B\	Pa-	4F#/	Pa-	4dd\	Pa-	8dd\L	8ff#\L
.	16e/)	16cc#\	.	.	.	.	.	.	.	.
8B\	16f#'/	16dd\	.	.	.	.	.	.	16dd\L	16ff#\L
.	16f#'/JJ	16dd\JJ	.	.	.	.	.	.	16dd\JJ	16ff#\JJ
8F#\	4f#/	4dd\	4F#\	-tri	4F#/	-tri	4dd\	-tri	8dd\L	8ff#\L
8F#\J	.	.	.	.	.	.	.	.	8dd\J	8ff#\J
=108	=108	=108	=108	=108	=108	=108	=108	=108	=108	=108
!LO:TX:a:t=P:problem=mixed beam	!	!	!	!	!	!	!	!	!	!
8A\L	16cc#\LL	16ee\LL	8A\	glo-	16c#\LL	glo-	16ee\LL	glo-	8a/L	8ee\L
.	(16ee\	16gg\	.	.	16e\JJ	.	16gg\JJ	.	.	.
8A\	16dd\	16ff#\	16A\	-ri-	16d\	-ri-	16ff#\	-ri-	8dd/	8ff#\
.	16ff#\JJ)	16aa\JJ	16A\	-a	16f#\	-a	16aa\	-a	.	.
.	.	8qqaa/	.	.	.	.	.	.	.	.
!	!	!	!	!	!	!	!LO:TX:a:t=P:problem=zamazany tekst	!	!	!
8C#/	4ee\	4gg\	8.C#/	fi-	8.e\	fi-	8.gg\	fi-	8ee/	8gg\
8C#/J	.	.	.	.	.	.	.	.	8ee/J	8gg\J
.	.	.	16C#/	-li-	16e\	-li-	16gg\	-li-	.	.
!	!	!	!	!	!LO:LB:g=original	!	!	!	!	!LO:LB:g=original
=109	=109	=109	=109	=109	=109	=109	=109	=109	=109	=109
*tremolo	*	*	*	*	*	*	*	*	*	*
8D\L	16ff#\LL	16ff#\LL	4D\	-o	4d\	-o	4ff#\	-o	8dd\L	8ff#\L
.	16dd\	16dd\	.	.	.	.	.	.	.	.
8D\	16ff#\	16ff#\	.	.	.	.	.	.	16dd\L	16ff#\L
.	16aa\JJ	16aa\JJ	.	.	.	.	.	.	16dd\JJ	16ff#\JJ
8D\	16ddd\LL	16ddd\LL	8D\	et	8A\	et	8dd\	et	8dd\L	8ff#\L
.	16aa\	16aa\	.	.	.	.	.	.	.	.
8D\J	16ff#\	16ff#\	8D\	spi-	8A\	spi-	8dd\	spi-	8dd\J	8ff#\J
.	16dd\JJ	16dd\JJ	.	.	.	.	.	.	.	.
*Xtremolo	*	*	*	*	*	*	*	*	*	*
=110	=110	=110	=110	=110	=110	=110	=110	=110	=110	=110
8AA/L	(24cc#\LL	24ee\LL	8A\	-ri-	16c#\LL	-ri-	16ee\LL	-ri-	8a\L	8ee\L
.	24dd\	24ff#\	.	.	.	.	.	.	.	.
.	.	.	.	.	16e\JJ	.	16gg\JJ	.	.	.
.	24ee\JJ)	24gg\JJ	.	.	.	.	.	.	.	.
8AA/	(24dd\LL	24ff#\LL	16A\	-tu-	16d\	-tu-	16ff#\	-tu-	8dd\	8ff#\
.	24ee\	24gg\	.	.	.	.	.	.	.	.
.	.	.	16A\	-i	16f#\	-i	16aa\	-i	.	.
.	24ff#\JJ)	24aa\JJ	.	.	.	.	.	.	.	.
.	8qqff#/	8qqaa/	.	.	.	.	.	.	.	.
8C#/	4ee\	4gg\	4C#/	san-	4e\	san-	4gg\	san-	8ee\	8gg\
8AA/J	.	.	.	.	.	.	.	.	8ee\J	8gg\J
!	!LO:PB:g=original	!	!	!	!	!	!	!	!LO:LB:g=original	!
=111	=111	=111	=111	=111	=111	=111	=111	=111	=111	=111
16D/LL	16ff#\LL	16ff#\LL	4D\	-cto	4d\	-cto	4ff#\	-cto	8dd\L	8ff#\L
16d\	16dd\	16dd\	.	.	.	.	.	.	.	.
16c#\	16cc#\	16cc#\	.	.	.	.	.	.	16dd\L	16ff#\L
16B\JJ	16b\JJ	16b\JJ	.	.	.	.	.	.	16dd\JJ	16ff#\JJ
16A\LL	16a\LL	16a/LL	4r	.	4r	.	4r	.	8dd\L	8ff#\L
16G\	16g\	16g/	.	.	.	.	.	.	.	.
16F#\	16f#\	16f#/	.	.	.	.	.	.	8dd\J	8ff#\J
16E\JJ	16e\JJ	16e/JJ	.	.	.	.	.	.	.	.
!	!	!	!LO:LB:g=original	!	!	!	!	!	!	!
=112	=112	=112	=112	=112	=112	=112	=112	=112	=112	=112
*tremolo	*	*	*	*	*	*	*	*	*	*
!	!LO:TX:a:t=P:problem=mixed beam	!LO:TX:a:t=P:problem=mixed beam	!	!	!	!	!	!	!	!
8D\L	16d/LL	16d/LL	4d\	si-	4B\	si-	4dd\	Si-	4dd\	4ff#\
.	16d/	16d/	.	.	.	.	.	.	.	.
8D\	16ff#\	16aa\	.	.	.	.	.	.	.	.
.	16ff#\JJ	16aa\JJ	.	.	.	.	.	.	.	.
8D\	16dd\LL	16ff#\LL	4d\	-cut	4B\	-cut	4dd\	-cut	4dd\	4ff#\
.	16dd\	16ff#\	.	.	.	.	.	.	.	.
8D\J	16b\	16dd\	.	.	.	.	.	.	.	.
.	16b\JJ	16dd\JJ	.	.	.	.	.	.	.	.
=113	=113	=113	=113	=113	=113	=113	=113	=113	=113	=113
8D\L	16a/LL	16ccn\LL	4d\	e-	4A/	e-	4ccn\	e-	8dd\L	8ff#\L
.	16a/	16cc\	.	.	.	.	.	.	.	.
8D\	16a/	16b\	.	.	.	.	.	.	16dd\L	16ff#\L
.	16a/JJ	16cc\JJ	.	.	.	.	.	.	16dd\JJ	16ff#\JJ
8D\	4a/	4cc\	4d\	-rat	4A/	-rat	4cc\	-rat	8dd\L	8ff#\L
8D\J	.	.	.	.	.	.	.	.	8dd\J	8ff#\J
=114	=114	=114	=114	=114	=114	=114	=114	=114	=114	=114
!	!LO:TX:a:t=P:problem=mixed beam	!LO:TX:a:t=P:problem=mixed beam	!	!	!	!	!	!	!	!
8D\L	16d/LL	16d/LL	4d\	in	4A/	in	4cc#\	in	8dd\L	8ff#\L
.	16d/	16d/	.	.	.	.	.	.	.	.
8D\	16ff#\	16aa\	.	.	.	.	.	.	16dd\L	16ff#\L
.	16ff#\JJ	16aa\JJ	.	.	.	.	.	.	16dd\JJ	16ff#\JJ
8D\	16dd\LL	16ff#\LL	4d\	prin-	4A/	prin-	4cc#\	prin-	8dd\L	8ff#\L
.	16dd\	16ff#\	.	.	.	.	.	.	.	.
8D\J	16b\	16cc#\	.	.	.	.	.	.	8dd\J	8ff#\J
.	16b\JJ	16cc#\JJ	.	.	.	.	.	.	.	.
*Xtremolo	*	*	*	*	*	*	*	*	*	*
=115	=115	=115	=115	=115	=115	=115	=115	=115	=115	=115
8G\L	4a/	4ccn\	8G\	-ci-	8A/	-ci-	8cc#\	-ci-	4dd\	4ff#\
8D\J	.	.	8GG/	-pi-	8G/	-pi-	8b\	-pi-	.	.
8BB/L	4g/	4b\	4G\	-o	4G/	-o	4b\	-o	4ee\	4gg\
8GG/J	.	.	.	.	.	.	.	.	.	.
!	!	!LO:LB:g=original	!	!	!	!	!	!	!	!
=116	=116	=116	=116	=116	=116	=116	=116	=116	=116	=116
*tremolo	*	*	*	*	*	*	*	*	*	*
!	!LO:TX:a:t=P:problem=mixed beam	!LO:TX:a:t=P:problem=mixed beam	!	!	!	!	!	!	!	!
8E\L	16e/LL	16e/LL	4E\	et	4c#\	et	4ee\	et	4ee\	4gg#X\
.	16e/	16e/	.	.	.	.	.	.	.	.
8E\	16gg#X\	16bb\	.	.	.	.	.	.	.	.
.	16gg#\JJ	16bb\JJ	.	.	.	.	.	.	.	.
8E\	16ee\LL	16gg#X\LL	8E\	nunc	8c#\	nunc	8ee\	nunc	4r	4r
.	16ee\	16gg#\	.	.	.	.	.	.	.	.
8E\J	16cc#\	16ee\	8E\	et	8c#\	et	8ee\	et	.	.
.	16cc#\JJ	16ee\JJ	.	.	.	.	.	.	.	.
=117	=117	=117	=117	=117	=117	=117	=117	=117	=117	=117
8E\L	16b/LL	16dd\LL	4E\	sem-	4B\	sem-	4dd\	Sem-	8ee\L	8gg\L
.	16a/	16cc#X\	.	.	.	.	.	.	.	.
8E\	16b/	16dd\	.	.	.	.	.	.	16ee\L	16gg\L
.	16b/JJ	16dd\JJ	.	.	.	.	.	.	16ee\JJ	16gg\JJ
8E\	4b/	4dd\	4E\	-per	4B\	-per	4dd\	-per	8ee\L	8gg\L
8E\J	.	.	.	.	.	.	.	.	8ee\J	8gg\J
=118	=118	=118	=118	=118	=118	=118	=118	=118	=118	=118
!	!LO:TX:a:t=P:problem=mixed beam	!LO:TX:a:t=P:problem=mixed beam	!	!	!	!	!	!	!	!
8E\L	16e/LL	16e/LL	4E\	et	4B\	et	4dd\	et	8ee\L	8gg\L
.	16e/	16e/	.	.	.	.	.	.	.	.
8E\	16gg#X\	16bb\	.	.	.	.	.	.	16ee\L	16gg\L
.	16gg#\JJ	16bb\JJ	.	.	.	.	.	.	16ee\JJ	16gg\JJ
8E\	16ee\LL	16gg#X\LL	4E\	in	4B\	in	4dd\	in	8ee\L	8gg\L
.	16ee\	16gg#\	.	.	.	.	.	.	.	.
8E\J	16cc#\	16ee\	.	.	.	.	.	.	8ee\J	8gg\J
.	16cc#\JJ	16ee\JJ	.	.	.	.	.	.	.	.
*Xtremolo	*	*	*	*	*	*	*	*	*	*
=119	=119	=119	=119	=119	=119	=119	=119	=119	=119	=119
8A\L	4b/	4dd\	8A\	sae-	8B\	sae-	8dd\	sae-	4ee\	4gg\
8E\J	.	.	8AA/	-cu-	8A\	-cu-	8cc#X\	-cu-	.	.
!	!	!	!	!	!LO:TX:a:t=P:4\right:problem	!	!	!	!	!
8C#/L	4aT/	4cc#\	4A\	-la	4A\	-la	4dd\	-la	4a/	4aa\
8AA/J	.	.	.	.	.	.	.	.	.	.
!	!	!	!	!	!LO:LB:g=original	!	!LO:LB:g=original	!	!	!
=120	=120	=120	=120	=120	=120	=120	=120	=120	=120	=120
8AA/L	16a/LL	16cc#\LL	4A\	sae-	4c#\	sae-	4ee\	sae-	4a/	4ee\
.	16a/	16cc#\	.	.	.	.	.	.	.	.
8AA/	16e/	16a\	.	.	.	.	.	.	.	.
.	16e/JJ	16a\JJ	.	.	.	.	.	.	.	.
8D/	16ee\LL	16gg\LL	8C#/L	-cu-	4e\	-cu-	4gg\	-cu-	4ee\	4gg\
.	16ee\	16gg\	.	.	.	.	.	.	.	.
8D/J	16cc#\	16ee\	8AA/J	.	.	.	.	.	.	.
.	16cc#\JJ	16ee\JJ	.	.	.	.	.	.	.	.
=121	=121	=121	=121	=121	=121	=121	=121	=121	=121	=121
!LO:TX:a:t=P:problem=mixed beam	!	!	!LO:TX:a:t=P:problem=mixed beam	!	!	!	!	!	!	!
8d\L	16dd\LL	16ff#\LL	8d\L	-lo-	8d\L	-lo-	8ff#\L	-lo-	8dd\L	8ff#\L
.	16dd\	16ff#\	.	.	.	.	.	.	.	.
8D/	16ff#\	16aa\	8D/J	.	8f#\J	.	8aa\J	.	16dd\L	16ff#\L
.	16ff#\JJ	16aa\JJ	.	.	.	.	.	.	16dd\JJ	16ff#\JJ
8F#/	16dd\LL	16ff#\LL	8F#\L	-rum	8d\L	-rum	8ff#\L	-rum	8dd\L	8ff#\L
.	16dd\	16ff#\	.	.	.	.	.	.	.	.
8D/J	16a\	16dd\	8D\J	.	8A\J	.	8dd\J	.	8dd\J	8ff#\J
.	16a\JJ	16dd\JJ	.	.	.	.	.	.	.	.
=122	=122	=122	=122	=122	=122	=122	=122	=122	=122	=122
!LO:TX:a:t=P:problem=mixed beam	!	!	!	!	!	!	!	!	!	!
8G\L	8g/L	8b\L	8G\L	a-	8G/L	a-	8b\L	a-	4ee\	4gg\
8E\	16b/L	16gg\L	8E\J	.	16B/L	.	16gg\L	.	.	.
.	16g/JJ	16ee\JJ	.	.	16G/JJ	.	16ee\JJ	.	.	.
!	!	!	!LO:TX:a:t=P:problem=mixed beam	!	!	!	!	!	!	!
.	8qqf#/	8qqdd/	.	.	8qqF#/	.	.	.	.	.
8A\	4e/	4cc#\	8A\L	-men	4E/	-men	4cc#\	-men	4a/	4ee\
8AA/J	.	.	8AA/J	.	.	.	.	.	.	.
=123	=123	=123	=123	=123	=123	=123	=123	=123	=123	=123
*	*^	*^	*	*	*	*	*	*	*	*
4D\	4f#/	4reyy	4dd\	4reyy	4D\	a-	4F#/	a-	4dd\	a-	4dd\	4ff#\
4AA/	4cc#/ 4ee	4a\	4cc#/ 4ee	4a\	4A\	.	4c#\	.	4ee\	.	4a/	4ee\
*	*v	*v	*	*	*	*	*	*	*	*	*	*
*	*	*v	*v	*	*	*	*	*	*	*	*
=124	=124	=124	=124	=124	=124	=124	=124	=124	=124	=124
4D\	4d/ 4a 4ff#	4d/ 4a 4ff#	4d\	-men	4d\	-men	4ff#\	-men	4dd\	4ff#\
4r	4r	4r	4r	.	4r	.	4r	.	4r	4r
==	==	==	==	==	==	==	==	==	==	==
*-	*-	*-	*-	*-	*-	*-	*-	*-	*-	*-
!!!system-decoration: [(g1)][(g2)][(g3)]g4
!!!ENC: Anna Matuszewska
!!!END: 2020-10-21
!!!ENC: Marcin Jachim
!!!END: 2020-06-09
!!!YEC: Copyright 2022 Narodowy Instytut Fryderyka Chopina (https://polishscores.org)
!!!YEM: License CC-BY-4.0 (https://creativecommons.org/licenses/by/4.0)
